color_science/AppleLog_to_Rec709_Gamma24.cube
TITLE "Vesper Cine Apple Log to Rec.709 (Gamma 2.4)"
# Generated by color_science/generate_applelog_lut.py
LUT_3D_SIZE 9
DOMAIN_MIN 0.0 0.0 0.0
DOMAIN_MAX 1.0 1.0 1.0
0.000000 0.000000 0.000000
0.164656 0.000000 0.000000
0.285191 0.000000 0.000000
0.462724 0.000000 0.000000
0.704428 0.000000 0.000000
0.885054 0.000000 0.000000
0.966455 0.000000 0.000000
0.996613 0.000000 0.000000
1.000000 0.000000 0.000000
0.000000 0.036367 0.000000
0.000000 0.000000 0.000000
0.192091 0.000000 0.000000
0.404882 0.000000 0.000000
0.683267 0.000000 0.000000
0.881042 0.000000 0.000000
0.965903 0.000000 0.000000
0.996542 0.000000 0.000000
1.000000 0.000000 0.000000
0.000000 0.160039 0.000000
0.000000 0.135321 0.000000
0.143015 0.123725 0.000000
0.375978 0.097528 0.000000
0.673029 0.000000 0.000000
0.879182 0.000000 0.000000
0.965654 0.000000 0.000000
0.996510 0.000000 0.000000
1.000000 0.000000 0.000000
0.000000 0.326127 0.000000
0.000000 0.309638 0.000000
0.000000 0.302105 0.000000
0.307143 0.285754 0.000000
0.649486 0.237278 0.000000
0.875085 0.058651 0.000000
0.965119 0.000000 0.000000
0.996442 0.000000 0.000000
1.000000 0.000000 0.000000
0.000000 0.586006 0.000000
0.000000 0.578464 0.000000
0.000000 0.575041 0.000000
0.000000 0.567662 0.000000
0.567582 0.546221 0.000000
0.862458 0.477365 0.000000
0.963583 0.167842 0.000000
0.996251 0.000000 0.000000
1.000000 0.000000 0.000000
0.000000 0.823629 0.000000
0.000000 0.821879 0.000000
0.000000 0.821091 0.000000
0.000000 0.819409 0.000000
0.041881 0.814630 0.000000
0.813002 0.800257 0.000000
0.958805 0.748656 0.000000
0.995705 0.364797 0.000000
1.000000 0.000000 0.000000
0.000000 0.943452 0.000000
0.000000 0.943197 0.000000
0.000000 0.943083 0.000000
0.000000 0.942842 0.000000
0.000000 0.942169 0.000000
0.120945 0.940249 0.000000
0.939358 0.934392 0.000000
0.994006 0.912245 0.000000
1.000000 0.642054 0.000000
0.000000 0.988510 0.000000
0.000000 0.988477 0.000000
0.000000 0.988462 0.000000
0.000000 0.988431 0.000000
0.000000 0.988345 0.000000
0.000000 0.988105 0.000000
0.265534 0.987420 0.000000
0.987072 0.985328 0.000000
1.000000 0.977359 0.000000
0.000000 1.000000 0.000000
0.000000 1.000000 0.000000
0.000000 1.000000 0.000000
0.000000 1.000000 0.000000
0.000000 1.000000 0.000000
0.000000 1.000000 0.000000
0.000000 1.000000 0.000000
0.510525 1.000000 0.000000
1.000000 1.000000 0.000000
0.000000 0.000000 0.028998
0.150610 0.000000 0.013142
0.274674 0.000000 0.000000
0.456051 0.000000 0.000000
0.701938 0.000000 0.000000
0.884569 0.000000 0.000000
0.966387 0.000000 0.000000
0.996604 0.000000 0.000000
1.000000 0.000000 0.000000
0.000000 0.032244 0.000000
0.000000 0.000000 0.000000
0.179012 0.000000 0.000000
0.397035 0.000000 0.000000
0.680466 0.000000 0.000000
0.880528 0.000000 0.000000
0.965834 0.000000 0.000000
0.996533 0.000000 0.000000
1.000000 0.000000 0.000000
0.000000 0.158444 0.000000
0.000000 0.133610 0.000000
0.128047 0.121947 0.000000
0.367521 0.095554 0.000000
0.670074 0.000000 0.000000
0.878654 0.000000 0.000000
0.965584 0.000000 0.000000
0.996501 0.000000 0.000000
1.000000 0.000000 0.000000
0.000000 0.325048 0.000000
0.000000 0.308517 0.000000
0.000000 0.300964 0.000000
0.297149 0.284569 0.000000
0.646164 0.235955 0.000000
0.874526 0.056007 0.000000
0.965047 0.000000 0.000000
0.996433 0.000000 0.000000
1.000000 0.000000 0.000000
0.000000 0.585511 0.000000
0.000000 0.577953 0.000000
0.000000 0.574524 0.000000
0.000000 0.567130 0.000000
0.562879 0.545646 0.000000
0.861797 0.476643 0.000000
0.963507 0.166280 0.000000
0.996242 0.000000 0.000000
1.000000 0.000000 0.000000
0.000000 0.823513 0.000000
0.000000 0.821761 0.000000
0.000000 0.820973 0.000000
0.000000 0.819289 0.000000
0.000000 0.814504 0.000000
0.811874 0.800113 0.000000
0.958714 0.748442 0.000000
0.995695 0.363815 0.000000
1.000000 0.000000 0.000000
0.000000 0.943435 0.000000
0.000000 0.943180 0.000000
0.000000 0.943066 0.000000
0.000000 0.942825 0.000000
0.000000 0.942152 0.000000
0.104776 0.940230 0.000000
0.939192 0.934371 0.000000
0.993995 0.912211 0.000000
1.000000 0.641664 0.000000
0.000000 0.988508 0.000000
0.000000 0.988475 0.000000
0.000000 0.988460 0.000000
0.000000 0.988429 0.000000
0.000000 0.988343 0.000000
0.000000 0.988103 0.000000
0.254530 0.987418 0.000000
0.987050 0.985325 0.000000
1.000000 0.977354 0.000000
0.000000 1.000000 0.000000
0.000000 1.000000 0.000000
0.000000 1.000000 0.000000
0.000000 1.000000 0.000000
0.000000 1.000000 0.000000
0.000000 1.000000 0.000000
0.000000 1.000000 0.000000
0.504775 1.000000 0.000000
1.000000 1.000000 0.000000
0.000000 0.000000 0.156108
0.144191 0.000000 0.152564
0.269920 0.000000 0.150979
0.453044 0.000000 0.147609
0.700821 0.000000 0.138152
0.884353 0.000000 0.110528
0.966357 0.000000 0.000000
0.996600 0.000000 0.000000
1.000000 0.000000 0.000000
0.000000 0.030221 0.136062
0.000000 0.000000 0.132304
0.173064 0.000000 0.130621
0.393498 0.000000 0.127037
0.679209 0.000000 0.116934
0.880299 0.000000 0.086804
0.965803 0.000000 0.000000
0.996529 0.000000 0.000000
1.000000 0.000000 0.000000
0.000000 0.157734 0.126755
0.000000 0.132846 0.122883
0.121161 0.121154 0.121146
0.363706 0.094671 0.117445
0.668747 0.000000 0.106976
0.878418 0.000000 0.075223
0.965553 0.000000 0.000000
0.996497 0.000000 0.000000
1.000000 0.000000 0.000000
0.000000 0.324568 0.106071
0.000000 0.308018 0.101883
0.000000 0.300456 0.099998
0.292634 0.284042 0.095964
0.644671 0.235366 0.084410
0.874276 0.054804 0.046053
0.965016 0.000000 0.000000
0.996429 0.000000 0.000000
1.000000 0.000000 0.000000
0.000000 0.585290 0.027377
0.000000 0.577726 0.007103
0.000000 0.574294 0.000000
0.000000 0.566894 0.000000
0.560762 0.545390 0.000000
0.861502 0.476322 0.000000
0.963473 0.165584 0.000000
0.996238 0.000000 0.000000
1.000000 0.000000 0.000000
0.000000 0.823462 0.000000
0.000000 0.821709 0.000000
0.000000 0.820920 0.000000
0.000000 0.819235 0.000000
0.000000 0.814448 0.000000
0.811369 0.800050 0.000000
0.958673 0.748347 0.000000
0.995691 0.363378 0.000000
1.000000 0.000000 0.000000
0.000000 0.943427 0.000000
0.000000 0.943173 0.000000
0.000000 0.943059 0.000000
0.000000 0.942817 0.000000
0.000000 0.942144 0.000000
0.097238 0.940222 0.000000
0.939118 0.934361 0.000000
0.993989 0.912195 0.000000
1.000000 0.641491 0.000000
0.000000 0.988507 0.000000
0.000000 0.988474 0.000000
0.000000 0.988459 0.000000
0.000000 0.988428 0.000000
0.000000 0.988342 0.000000
0.000000 0.988102 0.000000
0.249552 0.987417 0.000000
0.987041 0.985324 0.000000
1.000000 0.977352 0.000000
0.000000 1.000000 0.000000
0.000000 1.000000 0.000000
0.000000 1.000000 0.000000
0.000000 1.000000 0.000000
0.000000 1.000000 0.000000
0.000000 1.000000 0.000000
0.000000 1.000000 0.000000
0.502186 1.000000 0.000000
1.000000 1.000000 0.000000
0.000000 0.000000 0.321728
0.130224 0.000000 0.319334
0.259710 0.000000 0.318266
0.446609 0.000000 0.316003
0.698437 0.000000 0.309706
0.883894 0.000000 0.291867
0.966293 0.000000 0.238593
0.996592 0.000000 0.018885
1.000000 0.000000 0.000000
0.000000 0.025355 0.308325
0.000000 0.000000 0.305855
0.160199 0.000000 0.304753
0.385920 0.000000 0.302417
0.676526 0.000000 0.295917
0.879812 0.000000 0.277490
0.965738 0.000000 0.222329
0.996520 0.000000 0.000000
1.000000 0.000000 0.000000
0.000000 0.156229 0.302234
0.000000 0.131228 0.299729
0.106039 0.119472 0.298611
0.355531 0.092793 0.296242
0.665914 0.000000 0.289648
0.877918 0.000000 0.270950
0.965487 0.000000 0.214905
0.996488 0.000000 0.000000
1.000000 0.000000 0.000000
0.000000 0.323553 0.289085
0.000000 0.306962 0.286503
0.000000 0.299381 0.285351
0.282945 0.282926 0.282908
0.641485 0.234120 0.276107
0.873746 0.052198 0.256811
0.964948 0.000000 0.198795
0.996420 0.000000 0.000000
1.000000 0.000000 0.000000
0.000000 0.584824 0.250676
0.000000 0.577246 0.247857
0.000000 0.573807 0.246599
0.000000 0.566393 0.243931
0.556239 0.544848 0.236495
0.860875 0.475643 0.215334
0.963401 0.164111 0.150827
0.996229 0.000000 0.000000
1.000000 0.000000 0.000000
0.000000 0.823353 0.122275
0.000000 0.821598 0.118342
0.000000 0.820809 0.116578
0.000000 0.819122 0.112813
0.000000 0.814329 0.102148
0.810295 0.799915 0.069429
0.958587 0.748146 0.000000
0.995682 0.362453 0.000000
1.000000 0.000000 0.000000
0.000000 0.943411 0.000000
0.000000 0.943157 0.000000
0.000000 0.943043 0.000000
0.000000 0.942801 0.000000
0.000000 0.942128 0.000000
0.080326 0.940205 0.000000
0.938961 0.934341 0.000000
0.993978 0.912162 0.000000
1.000000 0.641125 0.000000
0.000000 0.988505 0.000000
0.000000 0.988472 0.000000
0.000000 0.988457 0.000000
0.000000 0.988426 0.000000
0.000000 0.988340 0.000000
0.000000 0.988100 0.000000
0.238853 0.987414 0.000000
0.987021 0.985321 0.000000
1.000000 0.977348 0.000000
0.000000 1.000000 0.000000
0.000000 1.000000 0.000000
0.000000 1.000000 0.000000
0.000000 1.000000 0.000000
0.000000 1.000000 0.000000
0.000000 1.000000 0.000000
0.000000 1.000000 0.000000
0.496647 1.000000 0.000000
1.000000 1.000000 0.000000
0.000000 0.000000 0.581772
0.087711 0.000000 0.580666
0.230295 0.000000 0.580173
0.428249 0.000000 0.579129
0.691703 0.000000 0.576231
0.882614 0.000000 0.568077
0.966117 0.000000 0.544246
0.996569 0.000000 0.466360
1.000000 0.000000 0.084933
0.000000 0.000000 0.575597
0.000000 0.000000 0.574464
0.122158 0.000000 0.573959
0.364255 0.000000 0.572890
0.668937 0.000000 0.569921
0.878452 0.000000 0.561568
0.965557 0.000000 0.537140
0.996497 0.000000 0.457204
1.000000 0.000000 0.056765
0.000000 0.152051 0.572806
0.000000 0.126728 0.571661
0.056981 0.114785 0.571150
0.332131 0.087525 0.570070
0.657899 0.000000 0.567069
0.876521 0.000000 0.558625
0.965304 0.000000 0.533926
0.996465 0.000000 0.453056
1.000000 0.000000 0.040619
0.000000 0.320743 0.566814
0.000000 0.304041 0.565642
0.000000 0.296408 0.565120
0.255090 0.279838 0.564014
0.632456 0.230668 0.560944
0.872265 0.044423 0.552304
0.964762 0.000000 0.527021
0.996397 0.000000 0.444132
1.000000 0.000000 0.000000
0.000000 0.583536 0.549579
0.000000 0.575919 0.548331
0.000000 0.572462 0.547775
0.000000 0.565010 0.546596
0.543379 0.543352 0.543325
0.859122 0.473764 0.534112
0.963203 0.160022 0.507123
0.996206 0.000000 0.418323
1.000000 0.000000 0.000000
0.000000 0.823053 0.495903
0.000000 0.821293 0.494407
0.000000 0.820501 0.493740
0.000000 0.818809 0.492327
0.000000 0.814002 0.488402
0.807280 0.799542 0.477337
0.958349 0.747591 0.444807
0.995656 0.359896 0.336560
1.000000 0.000000 0.000000
0.000000 0.943368 0.280809
0.000000 0.943112 0.278177
0.000000 0.942999 0.277003
0.000000 0.942757 0.274513
0.000000 0.942082 0.267580
0.000000 0.940157 0.247898
0.938526 0.934286 0.188588
0.993948 0.912073 0.000000
1.000000 0.640112 0.000000
0.000000 0.988499 0.000000
0.000000 0.988466 0.000000
0.000000 0.988451 0.000000
0.000000 0.988420 0.000000
0.000000 0.988334 0.000000
0.000000 0.988094 0.000000
0.207950 0.987408 0.000000
0.986965 0.985314 0.000000
1.000000 0.977336 0.000000
0.000000 1.000000 0.000000
0.000000 1.000000 0.000000
0.000000 1.000000 0.000000
0.000000 1.000000 0.000000
0.000000 1.000000 0.000000
0.000000 1.000000 0.000000
0.000000 1.000000 0.000000
0.480872 1.000000 0.000000
1.000000 1.000000 0.000000
0.000000 0.000000 0.821212
0.000000 0.000000 0.820952
0.136709 0.000000 0.820837
0.372389 0.000000 0.820592
0.671773 0.000000 0.819915
0.878957 0.000000 0.818028
0.965624 0.000000 0.812645
0.996506 0.000000 0.796288
1.000000 0.000000 0.735465
0.000000 0.000000 0.819768
0.000000 0.000000 0.819504
0.000000 0.000000 0.819387
0.297880 0.000000 0.819139
0.646406 0.000000 0.818452
0.874566 0.000000 0.816538
0.965053 0.000000 0.811078
0.996433 0.000000 0.794474
1.000000 0.000000 0.732612
0.000000 0.140283 0.819119
0.000000 0.113962 0.818854
0.000000 0.101418 0.818736
0.260103 0.072087 0.818487
0.634066 0.000000 0.817796
0.872527 0.000000 0.815869
0.964794 0.000000 0.810374
0.996401 0.000000 0.793659
1.000000 0.000000 0.731328
0.000000 0.312905 0.817737
0.000000 0.295889 0.817468
0.000000 0.288111 0.817349
0.167608 0.271217 0.817096
0.605527 0.221015 0.816396
0.868027 0.000000 0.814443
0.964240 0.000000 0.808873
0.996332 0.000000 0.791920
1.000000 0.000000 0.728582
0.000000 0.579953 0.813833
0.000000 0.572228 0.813554
0.000000 0.568722 0.813430
0.000000 0.561162 0.813167
0.504660 0.539187 0.812441
0.854088 0.468535 0.810414
0.962648 0.148518 0.804630
0.996139 0.000000 0.786996
1.000000 0.000000 0.720762
0.000000 0.822222 0.802288
0.000000 0.820448 0.801979
0.000000 0.819649 0.801841
0.000000 0.817944 0.801550
0.000000 0.813096 0.800743
0.798529 0.798510 0.798490
0.957683 0.746052 0.792051
0.995586 0.352765 0.772331
1.000000 0.000000 0.697106
0.000000 0.943247 0.763064
0.000000 0.942991 0.762640
0.000000 0.942877 0.762452
0.000000 0.942634 0.762052
0.000000 0.941957 0.760947
0.000000 0.940025 0.757855
0.937301 0.934132 0.748972
0.993863 0.911824 0.721360
1.000000 0.637299 0.610746
0.000000 0.988483 0.538437
0.000000 0.988450 0.537138
0.000000 0.988436 0.536559
0.000000 0.988404 0.535333
0.000000 0.988318 0.531929
0.000000 0.988078 0.522340
0.107784 0.987391 0.494229
0.986809 0.985294 0.401524
1.000000 0.977304 0.000000
0.000000 1.000000 0.000000
0.000000 1.000000 0.000000
0.000000 1.000000 0.000000
0.000000 1.000000 0.000000
0.000000 1.000000 0.000000
0.000000 1.000000 0.000000
0.000000 1.000000 0.000000
0.433103 1.000000 0.000000
1.000000 1.000000 0.000000
0.000000 0.000000 0.942524
0.000000 0.000000 0.942486
0.000000 0.000000 0.942469
0.162376 0.000000 0.942433
0.603999 0.000000 0.942334
0.867794 0.000000 0.942061
0.964212 0.000000 0.941298
0.996328 0.000000 0.939111
1.000000 0.000000 0.932354
0.000000 0.000000 0.942313
0.000000 0.000000 0.942275
0.000000 0.000000 0.942258
0.000000 0.000000 0.942222
0.569071 0.000000 0.942123
0.862668 0.000000 0.941848
0.963607 0.000000 0.941080
0.996254 0.000000 0.938880
1.000000 0.000000 0.932080
0.000000 0.105387 0.942219
0.000000 0.074676 0.942181
0.000000 0.058661 0.942164
0.000000 0.000000 0.942127
0.551911 0.000000 0.942028
0.860280 0.000000 0.941753
0.963333 0.000000 0.940983
0.996221 0.000000 0.938777
1.000000 0.000000 0.931958
0.000000 0.290544 0.942020
0.000000 0.272612 0.941981
0.000000 0.264405 0.941964
0.000000 0.246557 0.941928
0.511821 0.193249 0.941828
0.854993 0.000000 0.941551
0.962746 0.000000 0.940777
0.996151 0.000000 0.938558
1.000000 0.000000 0.931698
0.000000 0.569817 0.941465
0.000000 0.561784 0.941426
0.000000 0.558136 0.941408
0.000000 0.550272 0.941371
0.365960 0.527393 0.941270
0.838469 0.453694 0.940989
0.961054 0.114622 0.940203
0.995954 0.000000 0.937949
1.000000 0.000000 0.930974
0.000000 0.819898 0.939891
0.000000 0.818083 0.939851
0.000000 0.817266 0.939832
0.000000 0.815521 0.939794
0.000000 0.810559 0.939688
0.770467 0.795617 0.939395
0.955762 0.741727 0.938574
0.995389 0.332459 0.936220
1.000000 0.000000 0.928915
0.000000 0.942912 0.935187
0.000000 0.942654 0.935141
0.000000 0.942538 0.935121
0.000000 0.942293 0.935077
0.000000 0.941610 0.934958
0.000000 0.939659 0.934626
0.933715 0.933707 0.933699
0.993627 0.911133 0.931029
1.000000 0.629356 0.922684
0.000000 0.988440 0.918562
0.000000 0.988407 0.918495
0.000000 0.988392 0.918465
0.000000 0.988361 0.918402
0.000000 0.988274 0.918227
0.000000 0.988033 0.917743
0.000000 0.987344 0.916385
0.986372 0.985239 0.912442
1.000000 0.977214 0.899782
0.000000 1.000000 0.794566
0.000000 1.000000 0.794235
0.000000 1.000000 0.794088
0.000000 1.000000 0.793776
0.000000 1.000000 0.792914
0.000000 1.000000 0.790505
0.000000 1.000000 0.783611
0.258311 1.000000 0.762434
1.000000 1.000000 0.680833
0.000000 0.000000 0.988184
0.000000 0.000000 0.988179
0.000000 0.000000 0.988177
0.000000 0.000000 0.988172
0.225451 0.000000 0.988159
0.825506 0.000000 0.988124
0.959861 0.000000 0.988026
0.995821 0.000000 0.987753
1.000000 0.000000 0.986970
0.000000 0.000000 0.988156
0.000000 0.000000 0.988152
0.000000 0.000000 0.988149
0.000000 0.000000 0.988145
0.115691 0.000000 0.988132
0.817139 0.000000 0.988097
0.959145 0.000000 0.987999
0.995742 0.000000 0.987725
1.000000 0.000000 0.986940
0.000000 0.000000 0.988144
0.000000 0.000000 0.988139
0.000000 0.000000 0.988137
0.000000 0.000000 0.988132
0.046764 0.000000 0.988120
0.813195 0.000000 0.988084
0.958821 0.000000 0.987986
0.995707 0.000000 0.987712
1.000000 0.000000 0.986927
0.000000 0.222288 0.988119
0.000000 0.201259 0.988114
0.000000 0.191573 0.988111
0.000000 0.170338 0.988107
0.000000 0.104367 0.988094
0.804365 0.000000 0.988058
0.958123 0.000000 0.987960
0.995632 0.000000 0.987686
1.000000 0.000000 0.986899
0.000000 0.539735 0.988047
0.000000 0.530766 0.988042
0.000000 0.526690 0.988040
0.000000 0.517897 0.988036
0.000000 0.492268 0.988023
0.775861 0.409242 0.987987
0.956108 0.000000 0.987888
0.995424 0.000000 0.987612
1.000000 0.000000 0.986821
0.000000 0.813215 0.987850
0.000000 0.811280 0.987844
0.000000 0.810409 0.987842
0.000000 0.808548 0.987837
0.000000 0.803253 0.987824
0.643941 0.787265 0.987788
0.949727 0.729135 0.987688
0.994824 0.270916 0.987408
1.000000 0.000000 0.986603
0.000000 0.941973 0.987288
0.000000 0.941708 0.987283
0.000000 0.941590 0.987280
0.000000 0.941338 0.987275
0.000000 0.940637 0.987262
0.000000 0.938633 0.987224
0.921881 0.932511 0.987119
0.992944 0.909181 0.986827
1.000000 0.605915 0.985986
0.000000 0.988320 0.985607
0.000000 0.988287 0.985601
0.000000 0.988272 0.985599
0.000000 0.988240 0.985593
0.000000 0.988153 0.985577
0.000000 0.987909 0.985535
0.000000 0.987214 0.985416
0.985090 0.985087 0.985084
1.000000 0.976963 0.984129
0.000000 1.000000 0.979635
0.000000 1.000000 0.979626
0.000000 1.000000 0.979622
0.000000 1.000000 0.979614
0.000000 1.000000 0.979591
0.000000 1.000000 0.979528
0.000000 1.000000 0.979354
0.000000 1.000000 0.978863
1.000000 1.000000 0.977438
0.000000 0.000000 1.000000
0.000000 0.000000 1.000000
0.000000 0.000000 1.000000
0.000000 0.000000 1.000000
0.000000 0.000000 1.000000
0.362759 0.000000 1.000000
0.942730 0.000000 1.000000
0.994253 0.000000 1.000000
1.000000 0.000000 1.000000
0.000000 0.000000 1.000000
0.000000 0.000000 1.000000
0.000000 0.000000 1.000000
0.000000 0.000000 1.000000
0.000000 0.000000 1.000000
0.286354 0.000000 1.000000
0.941488 0.000000 1.000000
0.994161 0.000000 1.000000
1.000000 0.000000 1.000000
0.000000 0.000000 1.000000
0.000000 0.000000 1.000000
0.000000 0.000000 1.000000
0.000000 0.000000 1.000000
0.000000 0.000000 1.000000
0.247526 0.000000 1.000000
0.940923 0.000000 1.000000
0.994119 0.000000 1.000000
1.000000 0.000000 1.000000
0.000000 0.000000 1.000000
0.000000 0.000000 1.000000
0.000000 0.000000 1.000000
0.000000 0.000000 1.000000
0.000000 0.000000 1.000000
0.151867 0.000000 1.000000
0.939700 0.000000 1.000000
0.994031 0.000000 1.000000
1.000000 0.000000 1.000000
0.000000 0.436733 1.000000
0.000000 0.424334 1.000000
0.000000 0.418688 1.000000
0.000000 0.406475 1.000000
0.000000 0.370660 1.000000
0.000000 0.252000 1.000000
0.936112 0.000000 1.000000
0.993783 0.000000 1.000000
1.000000 0.000000 1.000000
0.000000 0.792377 1.000000
0.000000 0.790050 1.000000
0.000000 0.789002 1.000000
0.000000 0.786759 1.000000
0.000000 0.780362 1.000000
0.000000 0.760901 1.000000
0.924197 0.688400 1.000000
0.993067 0.000000 1.000000
1.000000 0.000000 1.000000
0.000000 0.939256 1.000000
0.000000 0.938971 1.000000
0.000000 0.938843 1.000000
0.000000 0.938572 1.000000
0.000000 0.937817 1.000000
0.000000 0.935656 1.000000
0.860474 0.929027 1.000000
0.990800 0.903411 1.000000
1.000000 0.526977 1.000000
0.000000 0.987984 1.000000
0.000000 0.987950 1.000000
0.000000 0.987935 1.000000
0.000000 0.987902 1.000000
0.000000 0.987813 1.000000
0.000000 0.987562 1.000000
0.000000 0.986848 1.000000
0.980845 0.984659 1.000000
1.000000 0.976255 1.000000
0.000000 1.000000 1.000000
0.000000 1.000000 1.000000
0.000000 1.000000 1.000000
0.000000 1.000000 1.000000
0.000000 1.000000 1.000000
0.000000 1.000000 1.000000
0.000000 1.000000 1.000000
0.000000 1.000000 1.000000
1.000000 1.000000 1.000000
