color_science/AppleLog_to_Rec709_sRGB.cube
TITLE "Vesper Cine Apple Log to Rec.709 (sRGB viewfinder match)"
# Generated by color_science/generate_applelog_lut.py
LUT_3D_SIZE 5
DOMAIN_MIN 0.0 0.0 0.0
DOMAIN_MAX 1.0 1.0 1.0
0.000000 0.000000 0.000000
0.245877 0.000000 0.000000
0.688171 0.000000 0.000000
0.964610 0.000000 0.000000
1.000000 0.000000 0.000000
0.000000 0.113841 0.000000
0.095880 0.075530 0.000000
0.655046 0.000000 0.000000
0.963765 0.000000 0.000000
1.000000 0.000000 0.000000
0.000000 0.563237 0.000000
0.000000 0.551668 0.000000
0.543799 0.521263 0.000000
0.961580 0.122074 0.000000
1.000000 0.000000 0.000000
0.000000 0.940342 0.000000
0.000000 0.939953 0.000000
0.000000 0.938989 0.000000
0.936023 0.930784 0.000000
1.000000 0.622367 0.000000
0.000000 1.000000 0.000000
0.000000 1.000000 0.000000
0.000000 1.000000 0.000000
0.000000 1.000000 0.000000
1.000000 1.000000 0.000000
0.000000 0.000000 0.109693
0.229766 0.000000 0.104283
0.684366 0.000000 0.090750
0.964507 0.000000 0.000000
1.000000 0.000000 0.000000
0.000000 0.111409 0.078727
0.072825 0.072817 0.072810
0.650528 0.000000 0.057860
0.963658 0.000000 0.000000
1.000000 0.000000 0.000000
0.000000 0.562481 0.002296
0.000000 0.550880 0.000000
0.536604 0.520386 0.000000
0.961464 0.119691 0.000000
1.000000 0.000000 0.000000
0.000000 0.940316 0.000000
0.000000 0.939927 0.000000
0.000000 0.938962 0.000000
0.935769 0.930751 0.000000
1.000000 0.621773 0.000000
0.000000 1.000000 0.000000
0.000000 1.000000 0.000000
0.000000 1.000000 0.000000
0.000000 1.000000 0.000000
1.000000 1.000000 0.000000
0.000000 0.000000 0.558769
0.187961 0.000000 0.557082
0.674747 0.000000 0.552924
0.964253 0.000000 0.519179
1.000000 0.000000 0.034757
0.000000 0.105414 0.549310
0.013336 0.066098 0.547564
0.639083 0.000000 0.543258
0.963396 0.000000 0.508292
1.000000 0.000000 0.005919
0.000000 0.560630 0.524806
0.000000 0.548948 0.522902
0.518264 0.518236 0.518207
0.961179 0.113823 0.480014
1.000000 0.000000 0.000000
0.000000 0.940253 0.241253
0.000000 0.939863 0.237238
0.000000 0.938897 0.227297
0.935145 0.930671 0.143960
1.000000 0.620318 0.000000
0.000000 1.000000 0.000000
0.000000 1.000000 0.000000
0.000000 1.000000 0.000000
0.000000 1.000000 0.000000
1.000000 1.000000 0.000000
0.000000 0.000000 0.939363
0.000000 0.000000 0.939305
0.582219 0.000000 0.939163
0.962244 0.000000 0.938070
1.000000 0.000000 0.928634
0.000000 0.056184 0.939041
0.000000 0.014299 0.938983
0.527266 0.000000 0.938840
0.961317 0.000000 0.937737
1.000000 0.000000 0.928215
0.000000 0.546157 0.938245
0.000000 0.533834 0.938186
0.331088 0.501400 0.938040
0.958912 0.065926 0.936914
1.000000 0.000000 0.927178
0.000000 0.939772 0.931623
0.000000 0.939378 0.931552
0.000000 0.938399 0.931380
0.930069 0.930060 0.930052
1.000000 0.608971 0.918432
0.000000 1.000000 0.783267
0.000000 1.000000 0.782763
0.000000 1.000000 0.781524
0.000000 1.000000 0.771710
1.000000 1.000000 0.663279
0.000000 0.000000 1.000000
0.000000 0.000000 1.000000
0.000000 0.000000 1.000000
0.939580 0.000000 1.000000
1.000000 0.000000 1.000000
0.000000 0.000000 1.000000
0.000000 0.000000 1.000000
0.000000 0.000000 1.000000
0.937673 0.000000 1.000000
1.000000 0.000000 1.000000
0.000000 0.405753 1.000000
0.000000 0.386716 1.000000
0.000000 0.336047 1.000000
0.932598 0.000000 1.000000
1.000000 0.000000 1.000000
0.000000 0.935915 1.000000
0.000000 0.935479 1.000000
0.000000 0.934397 1.000000
0.852800 0.925124 1.000000
1.000000 0.500961 1.000000
0.000000 1.000000 1.000000
0.000000 1.000000 1.000000
0.000000 1.000000 1.000000
0.000000 1.000000 1.000000
1.000000 1.000000 1.000000
