color_science/AppleLog_to_Rec709_sRGB.cube
TITLE "Vesper Cine Apple Log to Rec.709 (sRGB viewfinder match)"
# Generated by color_science/generate_applelog_lut.py
LUT_3D_SIZE 9
DOMAIN_MIN 0.0 0.0 0.0
DOMAIN_MAX 1.0 1.0 1.0
0.000000 0.000000 0.000000
0.118713 0.000000 0.000000
0.245877 0.000000 0.000000
0.433174 0.000000 0.000000
0.688171 0.000000 0.000000
0.878732 0.000000 0.000000
0.964610 0.000000 0.000000
0.996427 0.000000 0.000000
1.000000 0.000000 0.000000
0.000000 0.004539 0.000000
0.000000 0.000000 0.000000
0.147656 0.000000 0.000000
0.372150 0.000000 0.000000
0.665846 0.000000 0.000000
0.874499 0.000000 0.000000
0.964028 0.000000 0.000000
0.996351 0.000000 0.000000
1.000000 0.000000 0.000000
0.000000 0.113841 0.000000
0.000000 0.087764 0.000000
0.095880 0.075530 0.000000
0.341656 0.047892 0.000000
0.655046 0.000000 0.000000
0.872537 0.000000 0.000000
0.963765 0.000000 0.000000
0.996318 0.000000 0.000000
1.000000 0.000000 0.000000
0.000000 0.289064 0.000000
0.000000 0.271668 0.000000
0.000000 0.263721 0.000000
0.269036 0.246471 0.000000
0.630208 0.195329 0.000000
0.868214 0.014293 0.000000
0.963200 0.000000 0.000000
0.996246 0.000000 0.000000
1.000000 0.000000 0.000000
0.000000 0.563237 0.000000
0.000000 0.555279 0.000000
0.000000 0.551668 0.000000
0.000000 0.543884 0.000000
0.543799 0.521263 0.000000
0.854893 0.448620 0.000000
0.961580 0.122074 0.000000
0.996045 0.000000 0.000000
1.000000 0.000000 0.000000
0.000000 0.813928 0.000000
0.000000 0.812082 0.000000
0.000000 0.811251 0.000000
0.000000 0.809477 0.000000
0.006369 0.804435 0.000000
0.802717 0.789271 0.000000
0.956539 0.734832 0.000000
0.995469 0.329861 0.000000
1.000000 0.000000 0.000000
0.000000 0.940342 0.000000
0.000000 0.940073 0.000000
0.000000 0.939953 0.000000
0.000000 0.939699 0.000000
0.000000 0.938989 0.000000
0.072597 0.936962 0.000000
0.936023 0.930784 0.000000
0.993677 0.907419 0.000000
1.000000 0.622367 0.000000
0.000000 0.987878 0.000000
0.000000 0.987843 0.000000
0.000000 0.987828 0.000000
0.000000 0.987795 0.000000
0.000000 0.987704 0.000000
0.000000 0.987451 0.000000
0.225138 0.986728 0.000000
0.986361 0.984521 0.000000
1.000000 0.976114 0.000000
0.000000 1.000000 0.000000
0.000000 1.000000 0.000000
0.000000 1.000000 0.000000
0.000000 1.000000 0.000000
0.000000 1.000000 0.000000
0.000000 1.000000 0.000000
0.000000 1.000000 0.000000
0.483604 1.000000 0.000000
1.000000 1.000000 0.000000
0.000000 0.000000 0.002636
0.103893 0.000000 0.000395
0.234781 0.000000 0.000000
0.426134 0.000000 0.000000
0.685545 0.000000 0.000000
0.878221 0.000000 0.000000
0.964538 0.000000 0.000000
0.996418 0.000000 0.000000
1.000000 0.000000 0.000000
0.000000 0.003400 0.000000
0.000000 0.000000 0.000000
0.133858 0.000000 0.000000
0.363872 0.000000 0.000000
0.662892 0.000000 0.000000
0.873957 0.000000 0.000000
0.963955 0.000000 0.000000
0.996342 0.000000 0.000000
1.000000 0.000000 0.000000
0.000000 0.112158 0.000000
0.000000 0.085958 0.000000
0.080090 0.073654 0.000000
0.332735 0.045809 0.000000
0.651928 0.000000 0.000000
0.871980 0.000000 0.000000
0.963691 0.000000 0.000000
0.996308 0.000000 0.000000
1.000000 0.000000 0.000000
0.000000 0.287926 0.000000
0.000000 0.270485 0.000000
0.000000 0.262517 0.000000
0.258492 0.245221 0.000000
0.626703 0.193933 0.000000
0.867625 0.012795 0.000000
0.963125 0.000000 0.000000
0.996236 0.000000 0.000000
1.000000 0.000000 0.000000
0.000000 0.562714 0.000000
0.000000 0.554741 0.000000
0.000000 0.551123 0.000000
0.000000 0.543323 0.000000
0.538837 0.520656 0.000000
0.854196 0.447858 0.000000
0.961499 0.120426 0.000000
0.996036 0.000000 0.000000
1.000000 0.000000 0.000000
0.000000 0.813806 0.000000
0.000000 0.811958 0.000000
0.000000 0.811126 0.000000
0.000000 0.809350 0.000000
0.000000 0.804302 0.000000
0.801527 0.789120 0.000000
0.956443 0.734606 0.000000
0.995459 0.328825 0.000000
1.000000 0.000000 0.000000
0.000000 0.940324 0.000000
0.000000 0.940055 0.000000
0.000000 0.939935 0.000000
0.000000 0.939680 0.000000
0.000000 0.938970 0.000000
0.055539 0.936943 0.000000
0.935847 0.930761 0.000000
0.993664 0.907382 0.000000
1.000000 0.621956 0.000000
0.000000 0.987876 0.000000
0.000000 0.987841 0.000000
0.000000 0.987825 0.000000
0.000000 0.987792 0.000000
0.000000 0.987702 0.000000
0.000000 0.987449 0.000000
0.213529 0.986726 0.000000
0.986338 0.984518 0.000000
1.000000 0.976109 0.000000
0.000000 1.000000 0.000000
0.000000 1.000000 0.000000
0.000000 1.000000 0.000000
0.000000 1.000000 0.000000
0.000000 1.000000 0.000000
0.000000 1.000000 0.000000
0.000000 1.000000 0.000000
0.477537 1.000000 0.000000
1.000000 1.000000 0.000000
0.000000 0.000000 0.109693
0.097121 0.000000 0.105955
0.229766 0.000000 0.104283
0.422962 0.000000 0.100727
0.684366 0.000000 0.090750
0.877992 0.000000 0.061607
0.964507 0.000000 0.000000
0.996413 0.000000 0.000000
1.000000 0.000000 0.000000
0.000000 0.002911 0.088545
0.000000 0.000000 0.084581
0.127583 0.000000 0.082805
0.360140 0.000000 0.079024
0.661565 0.000000 0.068365
0.873715 0.000000 0.036624
0.963922 0.000000 0.000000
0.996338 0.000000 0.000000
1.000000 0.000000 0.000000
0.000000 0.111409 0.078727
0.000000 0.085153 0.074642
0.072825 0.072817 0.072810
0.328710 0.044877 0.068904
0.650528 0.000000 0.057860
0.871731 0.000000 0.025972
0.963658 0.000000 0.000000
0.996304 0.000000 0.000000
1.000000 0.000000 0.000000
0.000000 0.287420 0.056905
0.000000 0.269959 0.052487
0.000000 0.261981 0.050498
0.253729 0.244664 0.046242
0.625128 0.193311 0.034246
0.867361 0.012145 0.008000
0.963091 0.000000 0.000000
0.996232 0.000000 0.000000
1.000000 0.000000 0.000000
0.000000 0.562481 0.002296
0.000000 0.554501 0.000090
0.000000 0.550880 0.000000
0.000000 0.543073 0.000000
0.536604 0.520386 0.000000
0.853884 0.447520 0.000000
0.961464 0.119691 0.000000
0.996031 0.000000 0.000000
1.000000 0.000000 0.000000
0.000000 0.813752 0.000000
0.000000 0.811903 0.000000
0.000000 0.811071 0.000000
0.000000 0.809293 0.000000
0.000000 0.804242 0.000000
0.800994 0.789052 0.000000
0.956400 0.734506 0.000000
0.995454 0.328364 0.000000
1.000000 0.000000 0.000000
0.000000 0.940316 0.000000
0.000000 0.940047 0.000000
0.000000 0.939927 0.000000
0.000000 0.939672 0.000000
0.000000 0.938962 0.000000
0.047586 0.936934 0.000000
0.935769 0.930751 0.000000
0.993659 0.907366 0.000000
1.000000 0.621773 0.000000
0.000000 0.987875 0.000000
0.000000 0.987840 0.000000
0.000000 0.987824 0.000000
0.000000 0.987791 0.000000
0.000000 0.987701 0.000000
0.000000 0.987448 0.000000
0.208277 0.986725 0.000000
0.986328 0.984517 0.000000
1.000000 0.976107 0.000000
0.000000 1.000000 0.000000
0.000000 1.000000 0.000000
0.000000 1.000000 0.000000
0.000000 1.000000 0.000000
0.000000 1.000000 0.000000
0.000000 1.000000 0.000000
0.000000 1.000000 0.000000
0.474806 1.000000 0.000000
1.000000 1.000000 0.000000
0.000000 0.000000 0.284423
0.082386 0.000000 0.281897
0.218994 0.000000 0.280771
0.416172 0.000000 0.278383
0.681852 0.000000 0.271740
0.877508 0.000000 0.252919
0.964439 0.000000 0.196715
0.996405 0.000000 0.000942
1.000000 0.000000 0.000000
0.000000 0.001910 0.270283
0.000000 0.000000 0.267677
0.114010 0.000000 0.266514
0.352145 0.000000 0.264050
0.658735 0.000000 0.257192
0.873201 0.000000 0.237752
0.963853 0.000000 0.179557
0.996329 0.000000 0.000000
1.000000 0.000000 0.000000
0.000000 0.109821 0.263857
0.000000 0.083446 0.261214
0.056871 0.071043 0.260035
0.320085 0.042897 0.257535
0.647540 0.000000 0.250578
0.871203 0.000000 0.230852
0.963589 0.000000 0.171725
0.996295 0.000000 0.000000
1.000000 0.000000 0.000000
0.000000 0.286348 0.249985
0.000000 0.268845 0.247260
0.000000 0.260847 0.246045
0.243507 0.243487 0.243468
0.621767 0.191996 0.236293
0.866802 0.010805 0.215936
0.963020 0.000000 0.154729
0.996223 0.000000 0.000000
1.000000 0.000000 0.000000
0.000000 0.561990 0.209464
0.000000 0.553995 0.206489
0.000000 0.550367 0.205162
0.000000 0.542545 0.202347
0.531832 0.519815 0.194503
0.853223 0.446803 0.172178
0.961388 0.118137 0.104123
0.996022 0.000000 0.000000
1.000000 0.000000 0.000000
0.000000 0.813638 0.074000
0.000000 0.811786 0.069851
0.000000 0.810953 0.067989
0.000000 0.809174 0.064018
0.000000 0.804117 0.052766
0.799861 0.788910 0.021427
0.956310 0.734294 0.000000
0.995444 0.327388 0.000000
1.000000 0.000000 0.000000
0.000000 0.940299 0.000000
0.000000 0.940030 0.000000
0.000000 0.939910 0.000000
0.000000 0.939655 0.000000
0.000000 0.938945 0.000000
0.030403 0.936916 0.000000
0.935604 0.930730 0.000000
0.993647 0.907331 0.000000
1.000000 0.621386 0.000000
0.000000 0.987872 0.000000
0.000000 0.987838 0.000000
0.000000 0.987822 0.000000
0.000000 0.987789 0.000000
0.000000 0.987698 0.000000
0.000000 0.987445 0.000000
0.196990 0.986722 0.000000
0.986307 0.984514 0.000000
1.000000 0.976102 0.000000
0.000000 1.000000 0.000000
0.000000 1.000000 0.000000
0.000000 1.000000 0.000000
0.000000 1.000000 0.000000
0.000000 1.000000 0.000000
0.000000 1.000000 0.000000
0.000000 1.000000 0.000000
0.468963 1.000000 0.000000
1.000000 1.000000 0.000000
0.000000 0.000000 0.558769
0.037549 0.000000 0.557602
0.187961 0.000000 0.557082
0.396803 0.000000 0.555981
0.674747 0.000000 0.552924
0.876157 0.000000 0.544322
0.964253 0.000000 0.519179
0.996381 0.000000 0.437010
1.000000 0.000000 0.034757
0.000000 0.000000 0.552255
0.000000 0.000000 0.551059
0.073877 0.000000 0.550527
0.329289 0.000000 0.549399
0.650729 0.000000 0.546267
0.871767 0.000000 0.537454
0.963663 0.000000 0.511683
0.996305 0.000000 0.427350
1.000000 0.000000 0.013215
0.000000 0.105414 0.549310
0.000000 0.078698 0.548102
0.013336 0.066098 0.547564
0.295398 0.037357 0.546423
0.639083 0.000000 0.543258
0.869730 0.000000 0.534349
0.963396 0.000000 0.508292
0.996271 0.000000 0.422974
1.000000 0.000000 0.005919
0.000000 0.283384 0.542988
0.000000 0.265763 0.541752
0.000000 0.257711 0.541202
0.214120 0.240229 0.540035
0.612241 0.188355 0.536796
0.865240 0.007337 0.527680
0.962824 0.000000 0.501007
0.996198 0.000000 0.413559
1.000000 0.000000 0.000000
0.000000 0.560630 0.524806
0.000000 0.552595 0.523489
0.000000 0.548948 0.522902
0.000000 0.541086 0.521659
0.518264 0.518236 0.518207
0.851373 0.444821 0.508488
0.961179 0.113823 0.480014
0.995997 0.000000 0.386331
1.000000 0.000000 0.000000
0.000000 0.813321 0.468178
0.000000 0.811464 0.466600
0.000000 0.810629 0.465896
0.000000 0.808844 0.464405
0.000000 0.803772 0.460265
0.796680 0.788517 0.448590
0.956058 0.733709 0.414272
0.995418 0.324690 0.300071
1.000000 0.000000 0.000000
0.000000 0.940253 0.241253
0.000000 0.939984 0.238477
0.000000 0.939863 0.237238
0.000000 0.939608 0.234611
0.000000 0.938897 0.227297
0.000000 0.936866 0.206532
0.935145 0.930671 0.143960
0.993615 0.907236 0.000000
1.000000 0.620318 0.000000
0.000000 0.987866 0.000000
0.000000 0.987832 0.000000
0.000000 0.987816 0.000000
0.000000 0.987783 0.000000
0.000000 0.987692 0.000000
0.000000 0.987439 0.000000
0.164387 0.986716 0.000000
0.986248 0.984506 0.000000
1.000000 0.976090 0.000000
0.000000 1.000000 0.000000
0.000000 1.000000 0.000000
0.000000 1.000000 0.000000
0.000000 1.000000 0.000000
0.000000 1.000000 0.000000
0.000000 1.000000 0.000000
0.000000 1.000000 0.000000
0.452320 1.000000 0.000000
1.000000 1.000000 0.000000
0.000000 0.000000 0.811379
0.000000 0.000000 0.811105
0.089228 0.000000 0.810983
0.337871 0.000000 0.810725
0.653720 0.000000 0.810011
0.872300 0.000000 0.808019
0.963733 0.000000 0.802341
0.996314 0.000000 0.785084
1.000000 0.000000 0.720915
0.000000 0.000000 0.809855
0.000000 0.000000 0.809577
0.000000 0.000000 0.809453
0.259264 0.000000 0.809191
0.626959 0.000000 0.808467
0.867667 0.000000 0.806447
0.963131 0.000000 0.800687
0.996237 0.000000 0.783170
1.000000 0.000000 0.717906
0.000000 0.092999 0.809171
0.000000 0.065230 0.808891
0.000000 0.051996 0.808767
0.219408 0.023449 0.808503
0.613940 0.000000 0.807775
0.865516 0.000000 0.805742
0.962858 0.000000 0.799944
0.996203 0.000000 0.782311
1.000000 0.000000 0.716551
0.000000 0.275115 0.807713
0.000000 0.257163 0.807429
0.000000 0.248957 0.807303
0.121827 0.231134 0.807036
0.583831 0.178171 0.806298
0.860768 0.000000 0.804238
0.962274 0.000000 0.798361
0.996130 0.000000 0.780476
1.000000 0.000000 0.713654
0.000000 0.556850 0.803594
0.000000 0.548700 0.803299
0.000000 0.545001 0.803169
0.000000 0.537026 0.802892
0.477416 0.513843 0.802125
0.846063 0.439304 0.799987
0.960593 0.101686 0.793884
0.995927 0.000000 0.775281
1.000000 0.000000 0.705404
0.000000 0.812445 0.791414
0.000000 0.810572 0.791088
0.000000 0.809730 0.790942
0.000000 0.807930 0.790635
0.000000 0.802816 0.789784
0.787448 0.787428 0.787407
0.955355 0.732085 0.780614
0.995343 0.317167 0.759809
1.000000 0.000000 0.680447
0.000000 0.940125 0.750032
0.000000 0.939855 0.749585
0.000000 0.939735 0.749386
0.000000 0.939479 0.748965
0.000000 0.938765 0.747799
0.000000 0.936726 0.744537
0.933853 0.930509 0.735166
0.993526 0.906974 0.706035
1.000000 0.617350 0.589337
0.000000 0.987850 0.513051
0.000000 0.987815 0.511681
0.000000 0.987799 0.511070
0.000000 0.987767 0.509777
0.000000 0.987676 0.506185
0.000000 0.987422 0.496069
0.058712 0.986698 0.466411
0.986084 0.984486 0.368608
1.000000 0.976055 0.000000
0.000000 1.000000 0.000000
0.000000 1.000000 0.000000
0.000000 1.000000 0.000000
0.000000 1.000000 0.000000
0.000000 1.000000 0.000000
0.000000 1.000000 0.000000
0.000000 1.000000 0.000000
0.401924 1.000000 0.000000
1.000000 1.000000 0.000000
0.000000 0.000000 0.939363
0.000000 0.000000 0.939322
0.000000 0.000000 0.939305
0.116307 0.000000 0.939267
0.582219 0.000000 0.939163
0.860522 0.000000 0.938875
0.962244 0.000000 0.938070
0.996127 0.000000 0.935762
1.000000 0.000000 0.928634
0.000000 0.000000 0.939140
0.000000 0.000000 0.939100
0.000000 0.000000 0.939082
0.000000 0.000000 0.939044
0.545370 0.000000 0.938939
0.855115 0.000000 0.938649
0.961605 0.000000 0.937840
0.996048 0.000000 0.935518
1.000000 0.000000 0.928345
0.000000 0.056184 0.939041
0.000000 0.025521 0.939001
0.000000 0.014299 0.938983
0.000000 0.000000 0.938944
0.527266 0.000000 0.938840
0.852595 0.000000 0.938549
0.961317 0.000000 0.937737
0.996013 0.000000 0.935409
1.000000 0.000000 0.928215
0.000000 0.251524 0.938831
0.000000 0.232605 0.938790
0.000000 0.223947 0.938772
0.000000 0.205117 0.938734
0.484971 0.148878 0.938628
0.847017 0.000000 0.938336
0.960697 0.000000 0.937520
0.995939 0.000000 0.935179
1.000000 0.000000 0.927942
0.000000 0.546157 0.938245
0.000000 0.537682 0.938204
0.000000 0.533834 0.938186
0.000000 0.525537 0.938147
0.331088 0.501400 0.938040
0.829585 0.423647 0.937743
0.958912 0.065926 0.936914
0.995732 0.000000 0.934536
1.000000 0.000000 0.927178
0.000000 0.809993 0.936586
0.000000 0.808077 0.936542
0.000000 0.807216 0.936523
0.000000 0.805374 0.936483
0.000000 0.800140 0.936371
0.757842 0.784376 0.936061
0.953329 0.727522 0.935196
0.995135 0.295745 0.932712
1.000000 0.000000 0.925005
0.000000 0.939772 0.931623
0.000000 0.939500 0.931574
0.000000 0.939378 0.931552
0.000000 0.939119 0.931507
0.000000 0.938399 0.931380
0.000000 0.936341 0.931031
0.930069 0.930060 0.930052
0.993276 0.906245 0.927236
1.000000 0.608971 0.918432
0.000000 0.987804 0.914083
0.000000 0.987769 0.914012
0.000000 0.987754 0.913980
0.000000 0.987721 0.913914
0.000000 0.987630 0.913730
0.000000 0.987375 0.913219
0.000000 0.986648 0.911786
0.985622 0.984428 0.907627
1.000000 0.975960 0.894270
0.000000 1.000000 0.783267
0.000000 1.000000 0.782918
0.000000 1.000000 0.782763
0.000000 1.000000 0.782434
0.000000 1.000000 0.781524
0.000000 1.000000 0.778982
0.000000 1.000000 0.771710
0.217518 1.000000 0.749368
1.000000 1.000000 0.663279
0.000000 0.000000 0.987534
0.000000 0.000000 0.987529
0.000000 0.000000 0.987526
0.000000 0.000000 0.987521
0.182851 0.000000 0.987508
0.815908 0.000000 0.987471
0.957653 0.000000 0.987368
0.995591 0.000000 0.987080
1.000000 0.000000 0.986254
0.000000 0.000000 0.987505
0.000000 0.000000 0.987500
0.000000 0.000000 0.987498
0.000000 0.000000 0.987493
0.067054 0.000000 0.987479
0.807082 0.000000 0.987442
0.956898 0.000000 0.987339
0.995508 0.000000 0.987050
1.000000 0.000000 0.986222
0.000000 0.000000 0.987492
0.000000 0.000000 0.987487
0.000000 0.000000 0.987485
0.000000 0.000000 0.987480
0.008300 0.000000 0.987466
0.802921 0.000000 0.987429
0.956556 0.000000 0.987326
0.995471 0.000000 0.987037
1.000000 0.000000 0.986208
0.000000 0.179514 0.987465
0.000000 0.157328 0.987460
0.000000 0.147109 0.987458
0.000000 0.124706 0.987453
0.000000 0.055107 0.987439
0.793605 0.000000 0.987402
0.955820 0.000000 0.987298
0.995392 0.000000 0.987009
1.000000 0.000000 0.986178
0.000000 0.514420 0.987390
0.000000 0.504958 0.987385
0.000000 0.500658 0.987382
0.000000 0.491381 0.987378
0.000000 0.464342 0.987364
0.763533 0.376750 0.987326
0.953694 0.000000 0.987222
0.995172 0.000000 0.986931
1.000000 0.000000 0.986096
0.000000 0.802941 0.987181
0.000000 0.800900 0.987176
0.000000 0.799982 0.987174
0.000000 0.798018 0.987169
0.000000 0.792431 0.987155
0.624357 0.775564 0.987116
0.946962 0.714237 0.987011
0.994539 0.230817 0.986715
1.000000 0.000000 0.985866
0.000000 0.938782 0.986589
0.000000 0.938502 0.986583
0.000000 0.938377 0.986581
0.000000 0.938112 0.986576
0.000000 0.937372 0.986561
0.000000 0.935258 0.986521
0.917585 0.928799 0.986411
0.992556 0.904186 0.986102
1.000000 0.584240 0.985215
0.000000 0.987678 0.984816
0.000000 0.987643 0.984809
0.000000 0.987627 0.984806
0.000000 0.987594 0.984801
0.000000 0.987501 0.984784
0.000000 0.987244 0.984739
0.000000 0.986510 0.984614
0.984270 0.984267 0.984264
1.000000 0.975696 0.983256
0.000000 1.000000 0.978515
0.000000 1.000000 0.978506
0.000000 1.000000 0.978501
0.000000 1.000000 0.978493
0.000000 1.000000 0.978469
0.000000 1.000000 0.978402
0.000000 1.000000 0.978218
0.000000 1.000000 0.977701
1.000000 1.000000 0.976197
0.000000 0.000000 1.000000
0.000000 0.000000 1.000000
0.000000 0.000000 1.000000
0.000000 0.000000 1.000000
0.000000 0.000000 1.000000
0.327711 0.000000 1.000000
0.939580 0.000000 1.000000
0.993937 0.000000 1.000000
1.000000 0.000000 1.000000
0.000000 0.000000 1.000000
0.000000 0.000000 1.000000
0.000000 0.000000 1.000000
0.000000 0.000000 1.000000
0.000000 0.000000 1.000000
0.247103 0.000000 1.000000
0.938270 0.000000 1.000000
0.993839 0.000000 1.000000
1.000000 0.000000 1.000000
0.000000 0.000000 1.000000
0.000000 0.000000 1.000000
0.000000 0.000000 1.000000
0.000000 0.000000 1.000000
0.000000 0.000000 1.000000
0.206140 0.000000 1.000000
0.937673 0.000000 1.000000
0.993795 0.000000 1.000000
1.000000 0.000000 1.000000
0.000000 0.000000 1.000000
0.000000 0.000000 1.000000
0.000000 0.000000 1.000000
0.000000 0.000000 1.000000
0.000000 0.000000 1.000000
0.105220 0.000000 1.000000
0.936383 0.000000 1.000000
0.993702 0.000000 1.000000
1.000000 0.000000 1.000000
0.000000 0.405753 1.000000
0.000000 0.392673 1.000000
0.000000 0.386716 1.000000
0.000000 0.373831 1.000000
0.000000 0.336047 1.000000
0.000000 0.210860 1.000000
0.932598 0.000000 1.000000
0.993441 0.000000 1.000000
1.000000 0.000000 1.000000
0.000000 0.780958 1.000000
0.000000 0.778503 1.000000
0.000000 0.777397 1.000000
0.000000 0.775031 1.000000
0.000000 0.768282 1.000000
0.000000 0.747750 1.000000
0.920028 0.671261 1.000000
0.992686 0.000000 1.000000
1.000000 0.000000 1.000000
0.000000 0.935915 1.000000
0.000000 0.935614 1.000000
0.000000 0.935479 1.000000
0.000000 0.935194 1.000000
0.000000 0.934397 1.000000
0.000000 0.932117 1.000000
0.852800 0.925124 1.000000
0.990294 0.898099 1.000000
1.000000 0.500961 1.000000
0.000000 0.987323 1.000000
0.000000 0.987287 1.000000
0.000000 0.987271 1.000000
0.000000 0.987237 1.000000
0.000000 0.987142 1.000000
0.000000 0.986878 1.000000
0.000000 0.986124 1.000000
0.979791 0.983816 1.000000
1.000000 0.974949 1.000000
0.000000 1.000000 1.000000
0.000000 1.000000 1.000000
0.000000 1.000000 1.000000
0.000000 1.000000 1.000000
0.000000 1.000000 1.000000
0.000000 1.000000 1.000000
0.000000 1.000000 1.000000
0.000000 1.000000 1.000000
1.000000 1.000000 1.000000
