color_science/AppleLog_to_Rec709_sRGB.cube
TITLE "Vesper Cine Apple Log to Rec.709 (sRGB viewfinder match)"
# Generated by color_science/generate_applelog_lut.py
LUT_3D_SIZE 33
DOMAIN_MIN 0.0 0.0 0.0
DOMAIN_MAX 1.0 1.0 1.0
0.000000 0.000000 0.000000
0.000000 0.000000 0.000000
0.010920 0.000000 0.000000
0.071384 0.000000 0.000000
0.118713 0.000000 0.000000
0.156150 0.000000 0.000000
0.187465 0.000000 0.000000
0.214953 0.000000 0.000000
0.245877 0.000000 0.000000
0.282878 0.000000 0.000000
0.326434 0.000000 0.000000
0.376673 0.000000 0.000000
0.433174 0.000000 0.000000
0.494795 0.000000 0.000000
0.559601 0.000000 0.000000
0.625010 0.000000 0.000000
0.688171 0.000000 0.000000
0.746503 0.000000 0.000000
0.798156 0.000000 0.000000
0.842236 0.000000 0.000000
0.878732 0.000000 0.000000
0.908252 0.000000 0.000000
0.931733 0.000000 0.000000
0.950197 0.000000 0.000000
0.964610 0.000000 0.000000
0.975811 0.000000 0.000000
0.984496 0.000000 0.000000
0.991221 0.000000 0.000000
0.996427 0.000000 0.000000
1.000000 0.000000 0.000000
1.000000 0.000000 0.000000
1.000000 0.000000 0.000000
1.000000 0.000000 0.000000
0.000000 0.000000 0.000000
0.000000 0.000000 0.000000
0.000000 0.000000 0.000000
0.006159 0.000000 0.000000
0.054604 0.000000 0.000000
0.098668 0.000000 0.000000
0.134275 0.000000 0.000000
0.165062 0.000000 0.000000
0.199375 0.000000 0.000000
0.240134 0.000000 0.000000
0.287832 0.000000 0.000000
0.342582 0.000000 0.000000
0.403892 0.000000 0.000000
0.470478 0.000000 0.000000
0.540188 0.000000 0.000000
0.610172 0.000000 0.000000
0.677336 0.000000 0.000000
0.738932 0.000000 0.000000
0.793074 0.000000 0.000000
0.838938 0.000000 0.000000
0.876647 0.000000 0.000000
0.906959 0.000000 0.000000
0.930942 0.000000 0.000000
0.949717 0.000000 0.000000
0.964320 0.000000 0.000000
0.975637 0.000000 0.000000
0.984391 0.000000 0.000000
0.991158 0.000000 0.000000
0.996389 0.000000 0.000000
1.000000 0.000000 0.000000
1.000000 0.000000 0.000000
1.000000 0.000000 0.000000
1.000000 0.000000 0.000000
0.000000 0.000000 0.000000
0.000000 0.000000 0.000000
0.000000 0.000000 0.000000
0.000000 0.000000 0.000000
0.024722 0.000000 0.000000
0.072060 0.000000 0.000000
0.110169 0.000000 0.000000
0.142678 0.000000 0.000000
0.178659 0.000000 0.000000
0.221196 0.000000 0.000000
0.270802 0.000000 0.000000
0.327593 0.000000 0.000000
0.391058 0.000000 0.000000
0.459853 0.000000 0.000000
0.531734 0.000000 0.000000
0.603738 0.000000 0.000000
0.672659 0.000000 0.000000
0.735682 0.000000 0.000000
0.790904 0.000000 0.000000
0.837536 0.000000 0.000000
0.875765 0.000000 0.000000
0.906415 0.000000 0.000000
0.930610 0.000000 0.000000
0.949516 0.000000 0.000000
0.964200 0.000000 0.000000
0.975565 0.000000 0.000000
0.984348 0.000000 0.000000
0.991132 0.000000 0.000000
0.996374 0.000000 0.000000
1.000000 0.000000 0.000000
1.000000 0.000000 0.000000
1.000000 0.000000 0.000000
1.000000 0.000000 0.000000
0.000000 0.000000 0.000000
0.000000 0.000000 0.000000
0.000000 0.000000 0.000000
0.000000 0.000000 0.000000
0.007274 0.000000 0.000000
0.049926 0.000000 0.000000
0.090606 0.000000 0.000000
0.124684 0.000000 0.000000
0.162103 0.000000 0.000000
0.206122 0.000000 0.000000
0.257286 0.000000 0.000000
0.315723 0.000000 0.000000
0.380912 0.000000 0.000000
0.451468 0.000000 0.000000
0.525075 0.000000 0.000000
0.598680 0.000000 0.000000
0.668992 0.000000 0.000000
0.733140 0.000000 0.000000
0.789211 0.000000 0.000000
0.836447 0.000000 0.000000
0.875081 0.000000 0.000000
0.905994 0.000000 0.000000
0.930354 0.000000 0.000000
0.949361 0.000000 0.000000
0.964106 0.000000 0.000000
0.975509 0.000000 0.000000
0.984314 0.000000 0.000000
0.991112 0.000000 0.000000
0.996362 0.000000 0.000000
1.000000 0.000000 0.000000
1.000000 0.000000 0.000000
1.000000 0.000000 0.000000
1.000000 0.000000 0.000000
0.000000 0.004539 0.000000
0.000000 0.000000 0.000000
0.000000 0.000000 0.000000
0.000000 0.000000 0.000000
0.000000 0.000000 0.000000
0.030158 0.000000 0.000000
0.073218 0.000000 0.000000
0.108880 0.000000 0.000000
0.147656 0.000000 0.000000
0.193023 0.000000 0.000000
0.245573 0.000000 0.000000
0.305457 0.000000 0.000000
0.372150 0.000000 0.000000
0.444237 0.000000 0.000000
0.519341 0.000000 0.000000
0.594333 0.000000 0.000000
0.665846 0.000000 0.000000
0.730964 0.000000 0.000000
0.787766 0.000000 0.000000
0.835518 0.000000 0.000000
0.874499 0.000000 0.000000
0.905636 0.000000 0.000000
0.930136 0.000000 0.000000
0.949230 0.000000 0.000000
0.964028 0.000000 0.000000
0.975462 0.000000 0.000000
0.984286 0.000000 0.000000
0.991095 0.000000 0.000000
0.996351 0.000000 0.000000
1.000000 0.000000 0.000000
1.000000 0.000000 0.000000
1.000000 0.000000 0.000000
1.000000 0.000000 0.000000
0.000000 0.029649 0.000000
0.000000 0.016389 0.000000
0.000000 0.011687 0.000000
0.000000 0.008400 0.000000
0.000000 0.005848 0.000000
0.015461 0.003767 0.000000
0.057028 0.002022 0.000000
0.094399 0.000507 0.000000
0.134521 0.000000 0.000000
0.181167 0.000000 0.000000
0.235001 0.000000 0.000000
0.296208 0.000000 0.000000
0.364268 0.000000 0.000000
0.437740 0.000000 0.000000
0.514196 0.000000 0.000000
0.590438 0.000000 0.000000
0.663033 0.000000 0.000000
0.729022 0.000000 0.000000
0.786478 0.000000 0.000000
0.834692 0.000000 0.000000
0.873983 0.000000 0.000000
0.905319 0.000000 0.000000
0.929944 0.000000 0.000000
0.949114 0.000000 0.000000
0.963958 0.000000 0.000000
0.975420 0.000000 0.000000
0.984261 0.000000 0.000000
0.991080 0.000000 0.000000
0.996342 0.000000 0.000000
1.000000 0.000000 0.000000
1.000000 0.000000 0.000000
1.000000 0.000000 0.000000
1.000000 0.000000 0.000000
0.000000 0.059635 0.000000
0.000000 0.044337 0.000000
0.000000 0.037688 0.000000
0.000000 0.032747 0.000000
0.000000 0.028786 0.000000
0.005081 0.025452 0.000000
0.041449 0.022566 0.000000
0.080783 0.019975 0.000000
0.122285 0.017013 0.000000
0.170178 0.013425 0.000000
0.225231 0.009189 0.000000
0.287677 0.004378 0.000000
0.357007 0.000000 0.000000
0.431761 0.000000 0.000000
0.509468 0.000000 0.000000
0.586862 0.000000 0.000000
0.660454 0.000000 0.000000
0.727245 0.000000 0.000000
0.785302 0.000000 0.000000
0.833939 0.000000 0.000000
0.873513 0.000000 0.000000
0.905030 0.000000 0.000000
0.929769 0.000000 0.000000
0.949009 0.000000 0.000000
0.963895 0.000000 0.000000
0.975382 0.000000 0.000000
0.984238 0.000000 0.000000
0.991067 0.000000 0.000000
0.996334 0.000000 0.000000
1.000000 0.000000 0.000000
1.000000 0.000000 0.000000
1.000000 0.000000 0.000000
1.000000 0.000000 0.000000
0.000000 0.085386 0.000000
0.000000 0.071477 0.000000
0.000000 0.065526 0.000000
0.000000 0.060873 0.000000
0.000000 0.056886 0.000000
0.000000 0.053322 0.000000
0.027030 0.050054 0.000000
0.067504 0.046955 0.000000
0.110495 0.043183 0.000000
0.159649 0.038220 0.000000
0.215900 0.032054 0.000000
0.279544 0.024717 0.000000
0.350094 0.016291 0.000000
0.426076 0.007183 0.000000
0.504975 0.000000 0.000000
0.583470 0.000000 0.000000
0.658011 0.000000 0.000000
0.725564 0.000000 0.000000
0.784192 0.000000 0.000000
0.833229 0.000000 0.000000
0.873070 0.000000 0.000000
0.904759 0.000000 0.000000
0.929605 0.000000 0.000000
0.948910 0.000000 0.000000
0.963836 0.000000 0.000000
0.975347 0.000000 0.000000
0.984217 0.000000 0.000000
0.991054 0.000000 0.000000
0.996327 0.000000 0.000000
1.000000 0.000000 0.000000
1.000000 0.000000 0.000000
1.000000 0.000000 0.000000
1.000000 0.000000 0.000000
0.000000 0.113841 0.000000
0.000000 0.101032 0.000000
0.000000 0.095595 0.000000
0.000000 0.091368 0.000000
0.000000 0.087764 0.000000
0.000000 0.084557 0.000000
0.012817 0.081632 0.000000
0.050728 0.078870 0.000000
0.095880 0.075530 0.000000
0.146700 0.071173 0.000000
0.204468 0.065464 0.000000
0.269603 0.057934 0.000000
0.341656 0.047892 0.000000
0.419145 0.034422 0.000000
0.499506 0.019129 0.000000
0.579346 0.004204 0.000000
0.655046 0.000000 0.000000
0.723527 0.000000 0.000000
0.782848 0.000000 0.000000
0.832372 0.000000 0.000000
0.872537 0.000000 0.000000
0.904433 0.000000 0.000000
0.929407 0.000000 0.000000
0.948792 0.000000 0.000000
0.963765 0.000000 0.000000
0.975304 0.000000 0.000000
0.984192 0.000000 0.000000
0.991039 0.000000 0.000000
0.996318 0.000000 0.000000
1.000000 0.000000 0.000000
1.000000 0.000000 0.000000
1.000000 0.000000 0.000000
1.000000 0.000000 0.000000
0.000000 0.147718 0.000000
0.000000 0.135940 0.000000
0.000000 0.130964 0.000000
0.000000 0.127107 0.000000
0.000000 0.123826 0.000000
0.000000 0.120914 0.000000
0.000000 0.118263 0.000000
0.028160 0.115767 0.000000
0.076122 0.112756 0.000000
0.129429 0.108842 0.000000
0.189313 0.103741 0.000000
0.256467 0.097065 0.000000
0.330530 0.088279 0.000000
0.410019 0.076615 0.000000
0.492314 0.060910 0.000000
0.573932 0.039153 0.000000
0.651160 0.014081 0.000000
0.720864 0.000000 0.000000
0.781096 0.000000 0.000000
0.831256 0.000000 0.000000
0.871844 0.000000 0.000000
0.904010 0.000000 0.000000
0.929152 0.000000 0.000000
0.948638 0.000000 0.000000
0.963673 0.000000 0.000000
0.975249 0.000000 0.000000
0.984159 0.000000 0.000000
0.991019 0.000000 0.000000
0.996306 0.000000 0.000000
1.000000 0.000000 0.000000
1.000000 0.000000 0.000000
1.000000 0.000000 0.000000
1.000000 0.000000 0.000000
0.000000 0.187823 0.000000
0.000000 0.177065 0.000000
0.000000 0.172534 0.000000
0.000000 0.169026 0.000000
0.000000 0.166048 0.000000
0.000000 0.163407 0.000000
0.000000 0.161007 0.000000
0.006071 0.158749 0.000000
0.048600 0.156029 0.000000
0.106062 0.152500 0.000000
0.169023 0.147912 0.000000
0.238969 0.141929 0.000000
0.315752 0.134097 0.000000
0.397924 0.123789 0.000000
0.482802 0.110113 0.000000
0.566786 0.091748 0.000000
0.646045 0.066545 0.000000
0.717368 0.030727 0.000000
0.778801 0.000000 0.000000
0.829799 0.000000 0.000000
0.870941 0.000000 0.000000
0.903460 0.000000 0.000000
0.928820 0.000000 0.000000
0.948439 0.000000 0.000000
0.963554 0.000000 0.000000
0.975178 0.000000 0.000000
0.984116 0.000000 0.000000
0.990994 0.000000 0.000000
0.996291 0.000000 0.000000
1.000000 0.000000 0.000000
1.000000 0.000000 0.000000
1.000000 0.000000 0.000000
1.000000 0.000000 0.000000
0.000000 0.234818 0.000000
0.000000 0.225108 0.000000
0.000000 0.221026 0.000000
0.000000 0.217869 0.000000
0.000000 0.215191 0.000000
0.000000 0.212818 0.000000
0.000000 0.210663 0.000000
0.000000 0.208637 0.000000
0.014062 0.206199 0.000000
0.073625 0.203038 0.000000
0.141464 0.198934 0.000000
0.215405 0.193593 0.000000
0.295939 0.186619 0.000000
0.381756 0.177477 0.000000
0.470120 0.165423 0.000000
0.557287 0.149403 0.000000
0.639267 0.127859 0.000000
0.712752 0.098328 0.000000
0.775784 0.056214 0.000000
0.827890 0.004328 0.000000
0.869761 0.000000 0.000000
0.902743 0.000000 0.000000
0.928389 0.000000 0.000000
0.948182 0.000000 0.000000
0.963400 0.000000 0.000000
0.975086 0.000000 0.000000
0.984062 0.000000 0.000000
0.990961 0.000000 0.000000
0.996271 0.000000 0.000000
1.000000 0.000000 0.000000
1.000000 0.000000 0.000000
1.000000 0.000000 0.000000
1.000000 0.000000 0.000000
0.000000 0.289064 0.000000
0.000000 0.280450 0.000000
0.000000 0.276833 0.000000
0.000000 0.274038 0.000000
0.000000 0.271668 0.000000
0.000000 0.269570 0.000000
0.000000 0.267665 0.000000
0.000000 0.265874 0.000000
0.000000 0.263721 0.000000
0.026780 0.260931 0.000000
0.103111 0.257311 0.000000
0.183170 0.252605 0.000000
0.269036 0.246471 0.000000
0.359897 0.238445 0.000000
0.453036 0.227897 0.000000
0.544537 0.213944 0.000000
0.630208 0.195329 0.000000
0.706612 0.170185 0.000000
0.771789 0.135579 0.000000
0.825375 0.086277 0.000000
0.868214 0.014293 0.000000
0.901806 0.000000 0.000000
0.927827 0.000000 0.000000
0.947846 0.000000 0.000000
0.963200 0.000000 0.000000
0.974968 0.000000 0.000000
0.983991 0.000000 0.000000
0.990919 0.000000 0.000000
0.996246 0.000000 0.000000
1.000000 0.000000 0.000000
1.000000 0.000000 0.000000
1.000000 0.000000 0.000000
1.000000 0.000000 0.000000
0.000000 0.350397 0.000000
0.000000 0.342933 0.000000
0.000000 0.339802 0.000000
0.000000 0.337383 0.000000
0.000000 0.335333 0.000000
0.000000 0.333519 0.000000
0.000000 0.331872 0.000000
0.000000 0.330325 0.000000
0.000000 0.328464 0.000000
0.000000 0.326055 0.000000
0.046648 0.322931 0.000000
0.137976 0.318872 0.000000
0.231852 0.313587 0.000000
0.329893 0.306681 0.000000
0.429699 0.297621 0.000000
0.527207 0.285668 0.000000
0.617964 0.269784 0.000000
0.698364 0.248465 0.000000
0.766458 0.219462 0.000000
0.822038 0.179208 0.000000
0.866174 0.121441 0.000000
0.900577 0.031082 0.000000
0.927093 0.000000 0.000000
0.947410 0.000000 0.000000
0.962941 0.000000 0.000000
0.974813 0.000000 0.000000
0.983899 0.000000 0.000000
0.990864 0.000000 0.000000
0.996213 0.000000 0.000000
1.000000 0.000000 0.000000
1.000000 0.000000 0.000000
1.000000 0.000000 0.000000
1.000000 0.000000 0.000000
0.000000 0.417901 0.000000
0.000000 0.411625 0.000000
0.000000 0.408995 0.000000
0.000000 0.406963 0.000000
0.000000 0.405242 0.000000
0.000000 0.403720 0.000000
0.000000 0.402338 0.000000
0.000000 0.401040 0.000000
0.000000 0.399479 0.000000
0.000000 0.397459 0.000000
0.000000 0.394841 0.000000
0.071337 0.391441 0.000000
0.179075 0.387017 0.000000
0.287839 0.381242 0.000000
0.397230 0.373675 0.000000
0.503254 0.363710 0.000000
0.601164 0.350498 0.000000
0.687140 0.332831 0.000000
0.759265 0.308929 0.000000
0.817574 0.276075 0.000000
0.863464 0.229896 0.000000
0.898954 0.162675 0.000000
0.926129 0.056678 0.000000
0.946838 0.000000 0.000000
0.962603 0.000000 0.000000
0.974613 0.000000 0.000000
0.983780 0.000000 0.000000
0.990793 0.000000 0.000000
0.996171 0.000000 0.000000
1.000000 0.000000 0.000000
1.000000 0.000000 0.000000
1.000000 0.000000 0.000000
1.000000 0.000000 0.000000
0.000000 0.489746 0.000000
0.000000 0.484661 0.000000
0.000000 0.482531 0.000000
0.000000 0.480886 0.000000
0.000000 0.479494 0.000000
0.000000 0.478262 0.000000
0.000000 0.477144 0.000000
0.000000 0.476095 0.000000
0.000000 0.474833 0.000000
0.000000 0.473201 0.000000
0.000000 0.471085 0.000000
0.000000 0.468340 0.000000
0.100408 0.464770 0.000000
0.227098 0.460114 0.000000
0.350902 0.454019 0.000000
0.469390 0.446005 0.000000
0.577644 0.435402 0.000000
0.671597 0.421259 0.000000
0.749416 0.402197 0.000000
0.811527 0.376141 0.000000
0.859829 0.339844 0.000000
0.896796 0.287938 0.000000
0.924855 0.210756 0.000000
0.946088 0.086816 0.000000
0.962161 0.000000 0.000000
0.974352 0.000000 0.000000
0.983625 0.000000 0.000000
0.990701 0.000000 0.000000
0.996116 0.000000 0.000000
1.000000 0.000000 0.000000
1.000000 0.000000 0.000000
1.000000 0.000000 0.000000
1.000000 0.000000 0.000000
0.000000 0.563237 0.000000
0.000000 0.559287 0.000000
0.000000 0.557634 0.000000
0.000000 0.556359 0.000000
0.000000 0.555279 0.000000
0.000000 0.554324 0.000000
0.000000 0.553458 0.000000
0.000000 0.552645 0.000000
0.000000 0.551668 0.000000
0.000000 0.550404 0.000000
0.000000 0.548767 0.000000
0.000000 0.546644 0.000000
0.000000 0.543884 0.000000
0.134781 0.540288 0.000000
0.282416 0.535587 0.000000
0.420018 0.529414 0.000000
0.543799 0.521263 0.000000
0.649554 0.510421 0.000000
0.735661 0.495857 0.000000
0.803206 0.476043 0.000000
0.854893 0.448620 0.000000
0.893899 0.409783 0.000000
0.923161 0.353012 0.000000
0.945097 0.266143 0.000000
0.961580 0.122074 0.000000
0.974010 0.000000 0.000000
0.983424 0.000000 0.000000
0.990582 0.000000 0.000000
0.996045 0.000000 0.000000
1.000000 0.000000 0.000000
1.000000 0.000000 0.000000
1.000000 0.000000 0.000000
1.000000 0.000000 0.000000
0.000000 0.635153 0.000000
0.000000 0.632224 0.000000
0.000000 0.630999 0.000000
0.000000 0.630055 0.000000
0.000000 0.629256 0.000000
0.000000 0.628549 0.000000
0.000000 0.627908 0.000000
0.000000 0.627307 0.000000
0.000000 0.626584 0.000000
0.000000 0.625650 0.000000
0.000000 0.624441 0.000000
0.000000 0.622873 0.000000
0.000000 0.620837 0.000000
0.000000 0.618188 0.000000
0.175320 0.614728 0.000000
0.344861 0.610194 0.000000
0.493221 0.604220 0.000000
0.617252 0.596296 0.000000
0.715920 0.585695 0.000000
0.791502 0.571344 0.000000
0.848074 0.551616 0.000000
0.889955 0.523927 0.000000
0.920883 0.483954 0.000000
0.943778 0.423958 0.000000
0.960812 0.328764 0.000000
0.973561 0.163415 0.000000
0.983160 0.000000 0.000000
0.990426 0.000000 0.000000
0.995953 0.000000 0.000000
1.000000 0.000000 0.000000
1.000000 0.000000 0.000000
1.000000 0.000000 0.000000
1.000000 0.000000 0.000000
0.000000 0.702352 0.000000
0.000000 0.700278 0.000000
0.000000 0.699411 0.000000
0.000000 0.698744 0.000000
0.000000 0.698179 0.000000
0.000000 0.697680 0.000000
0.000000 0.697227 0.000000
0.000000 0.696803 0.000000
0.000000 0.696293 0.000000
0.000000 0.695634 0.000000
0.000000 0.694782 0.000000
0.000000 0.693678 0.000000
0.000000 0.692245 0.000000
0.000000 0.690382 0.000000
0.000000 0.687954 0.000000
0.222734 0.684778 0.000000
0.413490 0.680604 0.000000
0.567689 0.675087 0.000000
0.686486 0.667738 0.000000
0.774532 0.657847 0.000000
0.838429 0.644352 0.000000
0.884492 0.625600 0.000000
0.917779 0.598890 0.000000
0.942003 0.559521 0.000000
0.959790 0.498645 0.000000
0.972968 0.397785 0.000000
0.982814 0.211615 0.000000
0.990223 0.000000 0.000000
0.995833 0.000000 0.000000
1.000000 0.000000 0.000000
1.000000 0.000000 0.000000
1.000000 0.000000 0.000000
1.000000 0.000000 0.000000
0.000000 0.762393 0.000000
0.000000 0.760987 0.000000
0.000000 0.760400 0.000000
0.000000 0.759948 0.000000
0.000000 0.759566 0.000000
0.000000 0.759228 0.000000
0.000000 0.758922 0.000000
0.000000 0.758635 0.000000
0.000000 0.758291 0.000000
0.000000 0.757846 0.000000
0.000000 0.757270 0.000000
0.000000 0.756526 0.000000
0.000000 0.755560 0.000000
0.000000 0.754307 0.000000
0.000000 0.752676 0.000000
0.001223 0.750546 0.000000
0.277430 0.747756 0.000000
0.486426 0.744081 0.000000
0.640125 0.739209 0.000000
0.748840 0.732691 0.000000
0.824330 0.723873 0.000000
0.876734 0.711751 0.000000
0.913471 0.694736 0.000000
0.939584 0.670148 0.000000
0.958415 0.633142 0.000000
0.972179 0.574101 0.000000
0.982356 0.471426 0.000000
0.989955 0.267124 0.000000
0.995676 0.000000 0.000000
1.000000 0.000000 0.000000
1.000000 0.000000 0.000000
1.000000 0.000000 0.000000
1.000000 0.000000 0.000000
0.000000 0.813928 0.000000
0.000000 0.813009 0.000000
0.000000 0.812626 0.000000
0.000000 0.812331 0.000000
0.000000 0.812082 0.000000
0.000000 0.811862 0.000000
0.000000 0.811663 0.000000
0.000000 0.811476 0.000000
0.000000 0.811251 0.000000
0.000000 0.810962 0.000000
0.000000 0.810588 0.000000
0.000000 0.810104 0.000000
0.000000 0.809477 0.000000
0.000000 0.808664 0.000000
0.000000 0.807608 0.000000
0.000000 0.806232 0.000000
0.006369 0.804435 0.000000
0.339293 0.802076 0.000000
0.560913 0.798963 0.000000
0.707391 0.794825 0.000000
0.802717 0.789271 0.000000
0.865326 0.781721 0.000000
0.907337 0.771278 0.000000
0.936221 0.756486 0.000000
0.956539 0.734832 0.000000
0.971116 0.701604 0.000000
0.981746 0.646954 0.000000
0.989602 0.546986 0.000000
0.995469 0.329861 0.000000
0.999888 0.000000 0.000000
1.000000 0.000000 0.000000
1.000000 0.000000 0.000000
1.000000 0.000000 0.000000
0.000000 0.856708 0.000000
0.000000 0.856125 0.000000
0.000000 0.855882 0.000000
0.000000 0.855696 0.000000
0.000000 0.855538 0.000000
0.000000 0.855398 0.000000
0.000000 0.855272 0.000000
0.000000 0.855154 0.000000
0.000000 0.855012 0.000000
0.000000 0.854829 0.000000
0.000000 0.854593 0.000000
0.000000 0.854287 0.000000
0.000000 0.853892 0.000000
0.000000 0.853380 0.000000
0.000000 0.852716 0.000000
0.000000 0.851852 0.000000
0.000000 0.850727 0.000000
0.014536 0.849255 0.000000
0.407456 0.847321 0.000000
0.633672 0.844766 0.000000
0.767136 0.841362 0.000000
0.847672 0.836781 0.000000
0.898279 0.830531 0.000000
0.931425 0.821841 0.000000
0.953931 0.809443 0.000000
0.969666 0.791097 0.000000
0.980926 0.762475 0.000000
0.989131 0.714097 0.000000
0.995196 0.621166 0.000000
0.999728 0.398976 0.000000
1.000000 0.000000 0.000000
1.000000 0.000000 0.000000
1.000000 0.000000 0.000000
0.000000 0.891315 0.000000
0.000000 0.890953 0.000000
0.000000 0.890803 0.000000
0.000000 0.890687 0.000000
0.000000 0.890589 0.000000
0.000000 0.890503 0.000000
0.000000 0.890425 0.000000
0.000000 0.890351 0.000000
0.000000 0.890264 0.000000
0.000000 0.890150 0.000000
0.000000 0.890004 0.000000
0.000000 0.889815 0.000000
0.000000 0.889571 0.000000
0.000000 0.889256 0.000000
0.000000 0.888847 0.000000
0.000000 0.888316 0.000000
0.000000 0.887625 0.000000
0.000000 0.886725 0.000000
0.027536 0.885547 0.000000
0.480122 0.883998 0.000000
0.701524 0.881948 0.000000
0.818142 0.879215 0.000000
0.884170 0.875529 0.000000
0.924325 0.870486 0.000000
0.950207 0.863449 0.000000
0.967649 0.853353 0.000000
0.979806 0.838289 0.000000
0.988498 0.814476 0.000000
0.994833 0.773305 0.000000
0.999518 0.690683 0.000000
1.000000 0.472674 0.000000
1.000000 0.000000 0.000000
1.000000 0.000000 0.000000
0.000000 0.918794 0.000000
0.000000 0.918573 0.000000
0.000000 0.918481 0.000000
0.000000 0.918410 0.000000
0.000000 0.918350 0.000000
0.000000 0.918298 0.000000
0.000000 0.918250 0.000000
0.000000 0.918205 0.000000
0.000000 0.918152 0.000000
0.000000 0.918083 0.000000
0.000000 0.917994 0.000000
0.000000 0.917879 0.000000
0.000000 0.917730 0.000000
0.000000 0.917538 0.000000
0.000000 0.917290 0.000000
0.000000 0.916968 0.000000
0.000000 0.916550 0.000000
0.000000 0.916006 0.000000
0.000000 0.915297 0.000000
0.047724 0.914369 0.000000
0.554600 0.913148 0.000000
0.762025 0.911531 0.000000
0.860292 0.909373 0.000000
0.913217 0.906458 0.000000
0.944685 0.902464 0.000000
0.964768 0.896874 0.000000
0.978249 0.888825 0.000000
0.987634 0.876743 0.000000
0.994344 0.857459 0.000000
0.999237 0.823532 0.000000
1.000000 0.752939 0.000000
1.000000 0.548238 0.000000
1.000000 0.000000 0.000000
0.000000 0.940342 0.000000
0.000000 0.940207 0.000000
0.000000 0.940152 0.000000
0.000000 0.940109 0.000000
0.000000 0.940073 0.000000
0.000000 0.940041 0.000000
0.000000 0.940012 0.000000
0.000000 0.939985 0.000000
0.000000 0.939953 0.000000
0.000000 0.939911 0.000000
0.000000 0.939858 0.000000
0.000000 0.939788 0.000000
0.000000 0.939699 0.000000
0.000000 0.939583 0.000000
0.000000 0.939433 0.000000
0.000000 0.939239 0.000000
0.000000 0.938989 0.000000
0.000000 0.938663 0.000000
0.000000 0.938239 0.000000
0.000000 0.937686 0.000000
0.072597 0.936962 0.000000
0.627636 0.936010 0.000000
0.813850 0.934748 0.000000
0.894268 0.933062 0.000000
0.936023 0.930784 0.000000
0.960493 0.927658 0.000000
0.976024 0.923276 0.000000
0.986432 0.916950 0.000000
0.993677 0.907419 0.000000
0.998859 0.892103 0.000000
1.000000 0.864820 0.000000
1.000000 0.806455 0.000000
1.000000 0.622367 0.000000
0.000000 0.957106 0.000000
0.000000 0.957026 0.000000
0.000000 0.956992 0.000000
0.000000 0.956966 0.000000
0.000000 0.956945 0.000000
0.000000 0.956926 0.000000
0.000000 0.956908 0.000000
0.000000 0.956892 0.000000
0.000000 0.956873 0.000000
0.000000 0.956848 0.000000
0.000000 0.956815 0.000000
0.000000 0.956774 0.000000
0.000000 0.956720 0.000000
0.000000 0.956650 0.000000
0.000000 0.956561 0.000000
0.000000 0.956445 0.000000
0.000000 0.956295 0.000000
0.000000 0.956100 0.000000
0.000000 0.955848 0.000000
0.000000 0.955519 0.000000
0.000000 0.955091 0.000000
0.101896 0.954530 0.000000
0.696014 0.953791 0.000000
0.856791 0.952812 0.000000
0.921173 0.951504 0.000000
0.953777 0.949736 0.000000
0.972721 0.947308 0.000000
0.984715 0.943901 0.000000
0.992749 0.938975 0.000000
0.998344 0.931535 0.000000
1.000000 0.919529 0.000000
1.000000 0.897965 0.000000
1.000000 0.850909 0.000000
0.000000 0.970092 0.000000
0.000000 0.970044 0.000000
0.000000 0.970024 0.000000
0.000000 0.970008 0.000000
0.000000 0.969995 0.000000
0.000000 0.969984 0.000000
0.000000 0.969973 0.000000
0.000000 0.969963 0.000000
0.000000 0.969952 0.000000
0.000000 0.969937 0.000000
0.000000 0.969917 0.000000
0.000000 0.969893 0.000000
0.000000 0.969860 0.000000
0.000000 0.969819 0.000000
0.000000 0.969765 0.000000
0.000000 0.969696 0.000000
0.000000 0.969606 0.000000
0.000000 0.969490 0.000000
0.000000 0.969340 0.000000
0.000000 0.969145 0.000000
0.000000 0.968891 0.000000
0.000000 0.968560 0.000000
0.136541 0.968126 0.000000
0.757209 0.967555 0.000000
