color_science/AppleLog_to_Rec709_Gamma24.cube
TITLE "Vesper Cine Apple Log to Rec.709 (Gamma 2.4)"
# Generated by color_science/generate_applelog_lut.py
LUT_3D_SIZE 33
DOMAIN_MIN 0.0 0.0 0.0
DOMAIN_MAX 1.0 1.0 1.0
0.000000 0.000000 0.000000
0.000000 0.000000 0.000000
0.052428 0.000000 0.000000
0.119795 0.000000 0.000000
0.164656 0.000000 0.000000
0.200142 0.000000 0.000000
0.229824 0.000000 0.000000
0.255880 0.000000 0.000000
0.285191 0.000000 0.000000
0.320263 0.000000 0.000000
0.361549 0.000000 0.000000
0.409168 0.000000 0.000000
0.462724 0.000000 0.000000
0.521132 0.000000 0.000000
0.582560 0.000000 0.000000
0.644559 0.000000 0.000000
0.704428 0.000000 0.000000
0.759718 0.000000 0.000000
0.808678 0.000000 0.000000
0.850461 0.000000 0.000000
0.885054 0.000000 0.000000
0.913035 0.000000 0.000000
0.935292 0.000000 0.000000
0.952793 0.000000 0.000000
0.966455 0.000000 0.000000
0.977072 0.000000 0.000000
0.985304 0.000000 0.000000
0.991679 0.000000 0.000000
0.996613 0.000000 0.000000
1.000000 0.000000 0.000000
1.000000 0.000000 0.000000
1.000000 0.000000 0.000000
1.000000 0.000000 0.000000
0.000000 0.000000 0.000000
0.000000 0.000000 0.000000
0.000000 0.000000 0.000000
0.041297 0.000000 0.000000
0.103890 0.000000 0.000000
0.145657 0.000000 0.000000
0.179408 0.000000 0.000000
0.208590 0.000000 0.000000
0.241114 0.000000 0.000000
0.279748 0.000000 0.000000
0.324960 0.000000 0.000000
0.376855 0.000000 0.000000
0.434969 0.000000 0.000000
0.498084 0.000000 0.000000
0.564159 0.000000 0.000000
0.630495 0.000000 0.000000
0.694157 0.000000 0.000000
0.752542 0.000000 0.000000
0.803862 0.000000 0.000000
0.847334 0.000000 0.000000
0.883077 0.000000 0.000000
0.911810 0.000000 0.000000
0.934542 0.000000 0.000000
0.952338 0.000000 0.000000
0.966180 0.000000 0.000000
0.976907 0.000000 0.000000
0.985205 0.000000 0.000000
0.991619 0.000000 0.000000
0.996577 0.000000 0.000000
1.000000 0.000000 0.000000
1.000000 0.000000 0.000000
1.000000 0.000000 0.000000
1.000000 0.000000 0.000000
0.000000 0.000000 0.000000
0.000000 0.000000 0.000000
0.000000 0.000000 0.000000
0.000000 0.000000 0.000000
0.073693 0.000000 0.000000
0.120436 0.000000 0.000000
0.156558 0.000000 0.000000
0.187373 0.000000 0.000000
0.221478 0.000000 0.000000
0.261797 0.000000 0.000000
0.308817 0.000000 0.000000
0.362648 0.000000 0.000000
0.422804 0.000000 0.000000
0.488013 0.000000 0.000000
0.556146 0.000000 0.000000
0.624396 0.000000 0.000000
0.689724 0.000000 0.000000
0.749461 0.000000 0.000000
0.801804 0.000000 0.000000
0.846006 0.000000 0.000000
0.882242 0.000000 0.000000
0.911294 0.000000 0.000000
0.934227 0.000000 0.000000
0.952148 0.000000 0.000000
0.966066 0.000000 0.000000
0.976838 0.000000 0.000000
0.985164 0.000000 0.000000
0.991594 0.000000 0.000000
0.996563 0.000000 0.000000
1.000000 0.000000 0.000000
1.000000 0.000000 0.000000
1.000000 0.000000 0.000000
1.000000 0.000000 0.000000
0.000000 0.000000 0.000000
0.000000 0.000000 0.000000
0.000000 0.000000 0.000000
0.000000 0.000000 0.000000
0.044265 0.000000 0.000000
0.099456 0.000000 0.000000
0.138015 0.000000 0.000000
0.170317 0.000000 0.000000
0.205785 0.000000 0.000000
0.247509 0.000000 0.000000
0.296006 0.000000 0.000000
0.351397 0.000000 0.000000
0.413187 0.000000 0.000000
0.480064 0.000000 0.000000
0.549834 0.000000 0.000000
0.619602 0.000000 0.000000
0.686248 0.000000 0.000000
0.747052 0.000000 0.000000
0.800200 0.000000 0.000000
0.844973 0.000000 0.000000
0.881593 0.000000 0.000000
0.910894 0.000000 0.000000
0.933984 0.000000 0.000000
0.952001 0.000000 0.000000
0.965978 0.000000 0.000000
0.976786 0.000000 0.000000
0.985132 0.000000 0.000000
0.991575 0.000000 0.000000
0.996551 0.000000 0.000000
1.000000 0.000000 0.000000
1.000000 0.000000 0.000000
1.000000 0.000000 0.000000
1.000000 0.000000 0.000000
0.000000 0.036367 0.000000
0.000000 0.000000 0.000000
0.000000 0.000000 0.000000
0.000000 0.000000 0.000000
0.000000 0.000000 0.000000
0.080056 0.000000 0.000000
0.121533 0.000000 0.000000
0.155336 0.000000 0.000000
0.192091 0.000000 0.000000
0.235093 0.000000 0.000000
0.284903 0.000000 0.000000
0.341665 0.000000 0.000000
0.404882 0.000000 0.000000
0.473210 0.000000 0.000000
0.544399 0.000000 0.000000
0.615481 0.000000 0.000000
0.683267 0.000000 0.000000
0.744990 0.000000 0.000000
0.798830 0.000000 0.000000
0.844093 0.000000 0.000000
0.881042 0.000000 0.000000
0.910555 0.000000 0.000000
0.933778 0.000000 0.000000
0.951877 0.000000 0.000000
0.965903 0.000000 0.000000
0.976741 0.000000 0.000000
0.985105 0.000000 0.000000
0.991559 0.000000 0.000000
0.996542 0.000000 0.000000
1.000000 0.000000 0.000000
1.000000 0.000000 0.000000
1.000000 0.000000 0.000000
1.000000 0.000000 0.000000
0.000000 0.079490 0.000000
0.000000 0.062092 0.000000
0.000000 0.053932 0.000000
0.000000 0.046999 0.000000
0.000000 0.040416 0.000000
0.060603 0.033649 0.000000
0.106188 0.025965 0.000000
0.141611 0.014595 0.000000
0.179640 0.000000 0.000000
0.223855 0.000000 0.000000
0.274883 0.000000 0.000000
0.332899 0.000000 0.000000
0.397410 0.000000 0.000000
0.467052 0.000000 0.000000
0.539522 0.000000 0.000000
0.611789 0.000000 0.000000
0.680600 0.000000 0.000000
0.743149 0.000000 0.000000
0.797610 0.000000 0.000000
0.843310 0.000000 0.000000
0.880553 0.000000 0.000000
0.910255 0.000000 0.000000
0.933596 0.000000 0.000000
0.951767 0.000000 0.000000
0.965837 0.000000 0.000000
0.976701 0.000000 0.000000
0.985081 0.000000 0.000000
0.991545 0.000000 0.000000
0.996533 0.000000 0.000000
1.000000 0.000000 0.000000
1.000000 0.000000 0.000000
1.000000 0.000000 0.000000
1.000000 0.000000 0.000000
0.000000 0.108658 0.000000
0.000000 0.094158 0.000000
0.000000 0.087847 0.000000
0.000000 0.082851 0.000000
0.000000 0.078517 0.000000
0.038116 0.074592 0.000000
0.091421 0.070943 0.000000
0.128705 0.067429 0.000000
0.168043 0.063066 0.000000
0.213439 0.057140 0.000000
0.265622 0.048790 0.000000
0.324813 0.035825 0.000000
0.390528 0.000000 0.000000
0.461385 0.000000 0.000000
0.535040 0.000000 0.000000
0.608400 0.000000 0.000000
0.678156 0.000000 0.000000
0.741464 0.000000 0.000000
0.796495 0.000000 0.000000
0.842596 0.000000 0.000000
0.880107 0.000000 0.000000
0.909982 0.000000 0.000000
0.933430 0.000000 0.000000
0.951667 0.000000 0.000000
0.965777 0.000000 0.000000
0.976665 0.000000 0.000000
0.985060 0.000000 0.000000
0.991532 0.000000 0.000000
0.996525 0.000000 0.000000
1.000000 0.000000 0.000000
1.000000 0.000000 0.000000
1.000000 0.000000 0.000000
1.000000 0.000000 0.000000
0.000000 0.133067 0.000000
0.000000 0.119883 0.000000
0.000000 0.114242 0.000000
0.000000 0.109832 0.000000
0.000000 0.106053 0.000000
0.000000 0.102675 0.000000
0.076485 0.099578 0.000000
0.116118 0.096640 0.000000
0.156867 0.093065 0.000000
0.203459 0.088361 0.000000
0.256777 0.082115 0.000000
0.317104 0.073687 0.000000
0.383975 0.061938 0.000000
0.455996 0.044031 0.000000
0.530782 0.000000 0.000000
0.605185 0.000000 0.000000
0.675840 0.000000 0.000000
0.739871 0.000000 0.000000
0.795442 0.000000 0.000000
0.841924 0.000000 0.000000
0.879688 0.000000 0.000000
0.909725 0.000000 0.000000
0.933275 0.000000 0.000000
0.951574 0.000000 0.000000
0.965721 0.000000 0.000000
0.976632 0.000000 0.000000
0.985040 0.000000 0.000000
0.991520 0.000000 0.000000
0.996518 0.000000 0.000000
1.000000 0.000000 0.000000
1.000000 0.000000 0.000000
1.000000 0.000000 0.000000
1.000000 0.000000 0.000000
0.000000 0.160039 0.000000
0.000000 0.147897 0.000000
0.000000 0.142745 0.000000
0.000000 0.138737 0.000000
0.000000 0.135321 0.000000
0.000000 0.132282 0.000000
0.056046 0.129509 0.000000
0.100216 0.126891 0.000000
0.143015 0.123725 0.000000
0.191185 0.119595 0.000000
0.245941 0.114184 0.000000
0.307681 0.107046 0.000000
0.375978 0.097528 0.000000
0.449427 0.084590 0.000000
0.525598 0.066223 0.000000
0.601276 0.035222 0.000000
0.673029 0.000000 0.000000
0.737940 0.000000 0.000000
0.794169 0.000000 0.000000
0.841111 0.000000 0.000000
0.879182 0.000000 0.000000
0.909415 0.000000 0.000000
0.933087 0.000000 0.000000
0.951461 0.000000 0.000000
0.965654 0.000000 0.000000
0.976592 0.000000 0.000000
0.985016 0.000000 0.000000
0.991506 0.000000 0.000000
0.996510 0.000000 0.000000
1.000000 0.000000 0.000000
1.000000 0.000000 0.000000
1.000000 0.000000 0.000000
1.000000 0.000000 0.000000
0.000000 0.192150 0.000000
0.000000 0.180985 0.000000
0.000000 0.176270 0.000000
0.000000 0.172613 0.000000
0.000000 0.169503 0.000000
0.000000 0.166743 0.000000
0.000000 0.164231 0.000000
0.077801 0.161865 0.000000
0.124286 0.159010 0.000000
0.174814 0.155301 0.000000
0.231576 0.150465 0.000000
0.295229 0.144137 0.000000
0.365431 0.135809 0.000000
0.440776 0.124754 0.000000
0.518781 0.109867 0.000000
0.596144 0.089254 0.000000
0.669346 0.058288 0.000000
0.735416 0.000000 0.000000
0.792508 0.000000 0.000000
0.840053 0.000000 0.000000
0.878525 0.000000 0.000000
0.909014 0.000000 0.000000
0.932845 0.000000 0.000000
0.951316 0.000000 0.000000
0.965567 0.000000 0.000000
0.976540 0.000000 0.000000
0.984985 0.000000 0.000000
0.991487 0.000000 0.000000
0.996498 0.000000 0.000000
1.000000 0.000000 0.000000
1.000000 0.000000 0.000000
1.000000 0.000000 0.000000
1.000000 0.000000 0.000000
0.000000 0.230164 0.000000
0.000000 0.219967 0.000000
0.000000 0.215672 0.000000
0.000000 0.212347 0.000000
0.000000 0.209524 0.000000
0.000000 0.207021 0.000000
0.000000 0.204746 0.000000
0.041052 0.202606 0.000000
0.098199 0.200028 0.000000
0.152666 0.196683 0.000000
0.212344 0.192334 0.000000
0.278644 0.186663 0.000000
0.351423 0.179239 0.000000
0.429312 0.169468 0.000000
0.509765 0.156506 0.000000
0.589371 0.139097 0.000000
0.664498 0.115208 0.000000
0.732102 0.080682 0.000000
0.790333 0.000000 0.000000
0.838672 0.000000 0.000000
0.877669 0.000000 0.000000
0.908492 0.000000 0.000000
0.932531 0.000000 0.000000
0.951127 0.000000 0.000000
0.965454 0.000000 0.000000
0.976472 0.000000 0.000000
0.984945 0.000000 0.000000
0.991463 0.000000 0.000000
0.996484 0.000000 0.000000
1.000000 0.000000 0.000000
1.000000 0.000000 0.000000
1.000000 0.000000 0.000000
1.000000 0.000000 0.000000
0.000000 0.274709 0.000000
0.000000 0.265505 0.000000
0.000000 0.261636 0.000000
0.000000 0.258644 0.000000
0.000000 0.256105 0.000000
0.000000 0.253856 0.000000
0.000000 0.251813 0.000000
0.000000 0.249893 0.000000
0.058254 0.247582 0.000000
0.121919 0.244586 0.000000
0.186222 0.240696 0.000000
0.256308 0.235633 0.000000
0.332643 0.229023 0.000000
0.413987 0.220358 0.000000
0.497744 0.208932 0.000000
0.580367 0.193747 0.000000
0.658073 0.173326 0.000000
0.727727 0.145334 0.000000
0.787473 0.105416 0.000000
0.836863 0.035654 0.000000
0.876551 0.000000 0.000000
0.907813 0.000000 0.000000
0.932122 0.000000 0.000000
0.950883 0.000000 0.000000
0.965308 0.000000 0.000000
0.976385 0.000000 0.000000
0.984893 0.000000 0.000000
0.991432 0.000000 0.000000
0.996466 0.000000 0.000000
1.000000 0.000000 0.000000
1.000000 0.000000 0.000000
1.000000 0.000000 0.000000
1.000000 0.000000 0.000000
0.000000 0.326127 0.000000
0.000000 0.317962 0.000000
0.000000 0.314534 0.000000
0.000000 0.311885 0.000000
0.000000 0.309638 0.000000
0.000000 0.307649 0.000000
0.000000 0.305843 0.000000
0.000000 0.304146 0.000000
0.000000 0.302105 0.000000
0.076190 0.299460 0.000000
0.149868 0.296029 0.000000
0.225754 0.291569 0.000000
0.307143 0.285754 0.000000
0.393268 0.278147 0.000000
0.481550 0.268149 0.000000
0.568281 0.254923 0.000000
0.649486 0.237278 0.000000
0.721907 0.213445 0.000000
0.783686 0.180644 0.000000
0.834478 0.133912 0.000000
0.875085 0.058651 0.000000
0.906925 0.000000 0.000000
0.931590 0.000000 0.000000
0.950565 0.000000 0.000000
0.965119 0.000000 0.000000
0.976273 0.000000 0.000000
0.984825 0.000000 0.000000
0.991392 0.000000 0.000000
0.996442 0.000000 0.000000
1.000000 0.000000 0.000000
1.000000 0.000000 0.000000
1.000000 0.000000 0.000000
1.000000 0.000000 0.000000
0.000000 0.384263 0.000000
0.000000 0.377188 0.000000
0.000000 0.374220 0.000000
0.000000 0.371927 0.000000
0.000000 0.369984 0.000000
0.000000 0.368264 0.000000
0.000000 0.366703 0.000000
0.000000 0.365237 0.000000
0.000000 0.363473 0.000000
0.000000 0.361190 0.000000
0.096349 0.358228 0.000000
0.182916 0.354381 0.000000
0.271897 0.349371 0.000000
0.364827 0.342826 0.000000
0.459430 0.334238 0.000000
0.551855 0.322908 0.000000
0.637880 0.307852 0.000000
0.714089 0.287645 0.000000
0.778633 0.260153 0.000000
0.831316 0.221998 0.000000
0.873151 0.167243 0.000000
0.905760 0.081068 0.000000
0.930894 0.000000 0.000000
0.950151 0.000000 0.000000
0.964873 0.000000 0.000000
0.976126 0.000000 0.000000
0.984739 0.000000 0.000000
0.991340 0.000000 0.000000
0.996411 0.000000 0.000000
1.000000 0.000000 0.000000
1.000000 0.000000 0.000000
1.000000 0.000000 0.000000
1.000000 0.000000 0.000000
0.000000 0.448247 0.000000
0.000000 0.442299 0.000000
0.000000 0.439805 0.000000
0.000000 0.437880 0.000000
0.000000 0.436249 0.000000
0.000000 0.434805 0.000000
0.000000 0.433495 0.000000
0.000000 0.432265 0.000000
0.000000 0.430786 0.000000
0.000000 0.428871 0.000000
0.000000 0.426390 0.000000
0.119751 0.423167 0.000000
0.221872 0.418974 0.000000
0.324966 0.413500 0.000000
0.428654 0.406327 0.000000
0.529150 0.396881 0.000000
0.621956 0.384359 0.000000
0.703451 0.367612 0.000000
0.771815 0.344956 0.000000
0.827084 0.313815 0.000000
0.870582 0.270044 0.000000
0.904222 0.206327 0.000000
0.929980 0.105856 0.000000
0.949610 0.000000 0.000000
0.964552 0.000000 0.000000
0.975936 0.000000 0.000000
0.984626 0.000000 0.000000
0.991273 0.000000 0.000000
0.996371 0.000000 0.000000
1.000000 0.000000 0.000000
1.000000 0.000000 0.000000
1.000000 0.000000 0.000000
1.000000 0.000000 0.000000
0.000000 0.516347 0.000000
0.000000 0.511527 0.000000
0.000000 0.509508 0.000000
0.000000 0.507949 0.000000
0.000000 0.506629 0.000000
0.000000 0.505461 0.000000
0.000000 0.504402 0.000000
0.000000 0.503407 0.000000
0.000000 0.502211 0.000000
0.000000 0.500664 0.000000
0.000000 0.498659 0.000000
0.000000 0.496057 0.000000
0.147306 0.492673 0.000000
0.267391 0.488260 0.000000
0.384742 0.482483 0.000000
0.497052 0.474886 0.000000
0.599662 0.464836 0.000000
0.688717 0.451430 0.000000
0.762480 0.433362 0.000000
0.821353 0.408664 0.000000
0.867137 0.374259 0.000000
0.902177 0.325059 0.000000
0.928773 0.251901 0.000000
0.948899 0.134423 0.000000
0.964133 0.000000 0.000000
0.975689 0.000000 0.000000
0.984479 0.000000 0.000000
0.991186 0.000000 0.000000
0.996319 0.000000 0.000000
1.000000 0.000000 0.000000
1.000000 0.000000 0.000000
1.000000 0.000000 0.000000
1.000000 0.000000 0.000000
0.000000 0.586006 0.000000
0.000000 0.582263 0.000000
0.000000 0.580696 0.000000
0.000000 0.579487 0.000000
0.000000 0.578464 0.000000
0.000000 0.577559 0.000000
0.000000 0.576738 0.000000
0.000000 0.575967 0.000000
0.000000 0.575041 0.000000
0.000000 0.573843 0.000000
0.000000 0.572291 0.000000
0.000000 0.570278 0.000000
0.000000 0.567662 0.000000
0.179888 0.564254 0.000000
0.319826 0.559798 0.000000
0.450254 0.553947 0.000000
0.567582 0.546221 0.000000
0.667823 0.535944 0.000000
0.749442 0.522139 0.000000
0.813465 0.503358 0.000000
0.862458 0.477365 0.000000
0.899430 0.440553 0.000000
0.927166 0.386741 0.000000
0.947959 0.304401 0.000000
0.963583 0.167842 0.000000
0.975365 0.000000 0.000000
0.984288 0.000000 0.000000
0.991073 0.000000 0.000000
0.996251 0.000000 0.000000
1.000000 0.000000 0.000000
1.000000 0.000000 0.000000
1.000000 0.000000 0.000000
1.000000 0.000000 0.000000
0.000000 0.654174 0.000000
0.000000 0.651397 0.000000
0.000000 0.650236 0.000000
0.000000 0.649341 0.000000
0.000000 0.648583 0.000000
0.000000 0.647914 0.000000
0.000000 0.647306 0.000000
0.000000 0.646736 0.000000
0.000000 0.646052 0.000000
0.000000 0.645166 0.000000
0.000000 0.644020 0.000000
0.000000 0.642534 0.000000
0.000000 0.640604 0.000000
0.000000 0.638093 0.000000
0.218313 0.634813 0.000000
0.379016 0.630515 0.000000
0.519641 0.624853 0.000000
0.637206 0.617343 0.000000
0.730730 0.607294 0.000000
0.802372 0.593691 0.000000
0.855994 0.574992 0.000000
0.895692 0.548746 0.000000
0.925007 0.510857 0.000000
0.946709 0.453988 0.000000
0.962855 0.363757 0.000000
0.974940 0.207029 0.000000
0.984038 0.000000 0.000000
0.990925 0.000000 0.000000
0.996164 0.000000 0.000000
1.000000 0.000000 0.000000
1.000000 0.000000 0.000000
1.000000 0.000000 0.000000
1.000000 0.000000 0.000000
0.000000 0.717869 0.000000
0.000000 0.715903 0.000000
0.000000 0.715082 0.000000
0.000000 0.714449 0.000000
0.000000 0.713914 0.000000
0.000000 0.713441 0.000000
0.000000 0.713012 0.000000
0.000000 0.712609 0.000000
0.000000 0.712126 0.000000
0.000000 0.711502 0.000000
0.000000 0.710694 0.000000
0.000000 0.709647 0.000000
0.000000 0.708289 0.000000
0.000000 0.706523 0.000000
0.000000 0.704222 0.000000
0.263255 0.701211 0.000000
0.444067 0.697255 0.000000
0.590227 0.692026 0.000000
0.702830 0.685060 0.000000
0.786286 0.675684 0.000000
0.846852 0.662893 0.000000
0.890514 0.645119 0.000000
0.922065 0.619801 0.000000
0.945027 0.582484 0.000000
0.961886 0.524782 0.000000
0.974378 0.429180 0.000000
0.983710 0.252716 0.000000
0.990732 0.000000 0.000000
0.996050 0.000000 0.000000
1.000000 0.000000 0.000000
1.000000 0.000000 0.000000
1.000000 0.000000 0.000000
1.000000 0.000000 0.000000
0.000000 0.774780 0.000000
0.000000 0.773447 0.000000
0.000000 0.772891 0.000000
0.000000 0.772462 0.000000
0.000000 0.772100 0.000000
0.000000 0.771780 0.000000
0.000000 0.771490 0.000000
0.000000 0.771218 0.000000
0.000000 0.770892 0.000000
0.000000 0.770470 0.000000
0.000000 0.769925 0.000000
0.000000 0.769219 0.000000
0.000000 0.768304 0.000000
0.000000 0.767116 0.000000
0.000000 0.765569 0.000000
0.021060 0.763551 0.000000
0.315099 0.760906 0.000000
0.513200 0.757423 0.000000
0.658886 0.752804 0.000000
0.761933 0.746627 0.000000
0.833488 0.738268 0.000000
0.883160 0.726779 0.000000
0.917982 0.710651 0.000000
0.942733 0.687344 0.000000
0.960583 0.652267 0.000000
0.973629 0.596304 0.000000
0.983276 0.498982 0.000000
0.990479 0.305331 0.000000
0.995901 0.000000 0.000000
1.000000 0.000000 0.000000
1.000000 0.000000 0.000000
1.000000 0.000000 0.000000
1.000000 0.000000 0.000000
0.000000 0.823629 0.000000
0.000000 0.822757 0.000000
0.000000 0.822394 0.000000
0.000000 0.822115 0.000000
0.000000 0.821879 0.000000
0.000000 0.821670 0.000000
0.000000 0.821481 0.000000
0.000000 0.821304 0.000000
0.000000 0.821091 0.000000
0.000000 0.820817 0.000000
0.000000 0.820462 0.000000
0.000000 0.820003 0.000000
0.000000 0.819409 0.000000
0.000000 0.818639 0.000000
0.000000 0.817638 0.000000
0.000000 0.816334 0.000000
0.041881 0.814630 0.000000
0.373738 0.812394 0.000000
0.583803 0.809443 0.000000
0.722645 0.805521 0.000000
0.813002 0.800257 0.000000
0.872347 0.793101 0.000000
0.912168 0.783202 0.000000
0.939546 0.769181 0.000000
0.958805 0.748656 0.000000
0.972622 0.717160 0.000000
0.982698 0.665359 0.000000
0.990144 0.570603 0.000000
0.995705 0.364797 0.000000
0.999894 0.000000 0.000000
1.000000 0.000000 0.000000
1.000000 0.000000 0.000000
1.000000 0.000000 0.000000
0.000000 0.864179 0.000000
0.000000 0.863626 0.000000
0.000000 0.863396 0.000000
0.000000 0.863218 0.000000
0.000000 0.863069 0.000000
0.000000 0.862937 0.000000
0.000000 0.862817 0.000000
0.000000 0.862705 0.000000
0.000000 0.862571 0.000000
0.000000 0.862397 0.000000
0.000000 0.862173 0.000000
0.000000 0.861884 0.000000
0.000000 0.861509 0.000000
0.000000 0.861024 0.000000
0.000000 0.860394 0.000000
0.000000 0.859576 0.000000
0.000000 0.858509 0.000000
0.059064 0.857114 0.000000
0.438347 0.855281 0.000000
0.652769 0.852858 0.000000
0.779275 0.849632 0.000000
0.855614 0.845290 0.000000
0.903582 0.839366 0.000000
0.935000 0.831129 0.000000
0.956333 0.819378 0.000000
0.971247 0.801988 0.000000
0.981920 0.774857 0.000000
0.989698 0.729002 0.000000
0.995447 0.640916 0.000000
0.999743 0.430309 0.000000
1.000000 0.000000 0.000000
1.000000 0.000000 0.000000
1.000000 0.000000 0.000000
0.000000 0.896981 0.000000
0.000000 0.896638 0.000000
0.000000 0.896495 0.000000
0.000000 0.896386 0.000000
0.000000 0.896293 0.000000
0.000000 0.896211 0.000000
0.000000 0.896137 0.000000
0.000000 0.896068 0.000000
0.000000 0.895985 0.000000
0.000000 0.895877 0.000000
0.000000 0.895739 0.000000
0.000000 0.895560 0.000000
0.000000 0.895328 0.000000
0.000000 0.895029 0.000000
0.000000 0.894641 0.000000
0.000000 0.894138 0.000000
0.000000 0.893484 0.000000
0.000000 0.892630 0.000000
0.077078 0.891514 0.000000
0.507225 0.890045 0.000000
0.717084 0.888103 0.000000
0.827622 0.885512 0.000000
0.890209 0.882018 0.000000
0.928270 0.877238 0.000000
0.952803 0.870568 0.000000
0.969335 0.860998 0.000000
0.980859 0.846719 0.000000
0.989098 0.824148 0.000000
0.995102 0.785123 0.000000
0.999543 0.706809 0.000000
1.000000 0.500165 0.000000
1.000000 0.000000 0.000000
1.000000 0.000000 0.000000
0.000000 0.923027 0.000000
0.000000 0.922818 0.000000
0.000000 0.922730 0.000000
0.000000 0.922663 0.000000
0.000000 0.922607 0.000000
0.000000 0.922557 0.000000
0.000000 0.922512 0.000000
0.000000 0.922469 0.000000
0.000000 0.922419 0.000000
0.000000 0.922353 0.000000
0.000000 0.922269 0.000000
0.000000 0.922160 0.000000
0.000000 0.922019 0.000000
0.000000 0.921837 0.000000
0.000000 0.921602 0.000000
0.000000 0.921296 0.000000
0.000000 0.920900 0.000000
0.000000 0.920385 0.000000
0.000000 0.919713 0.000000
0.097368 0.918833 0.000000
0.577820 0.917676 0.000000
0.774431 0.916143 0.000000
0.867575 0.914097 0.000000
0.917741 0.911335 0.000000
0.947568 0.907549 0.000000
0.966605 0.902251 0.000000
0.979383 0.894621 0.000000
0.988279 0.883169 0.000000
0.994639 0.864890 0.000000
0.999277 0.832731 0.000000
1.000000 0.765819 0.000000
1.000000 0.571790 0.000000
1.000000 0.000000 0.000000
0.000000 0.943452 0.000000
0.000000 0.943325 0.000000
0.000000 0.943272 0.000000
0.000000 0.943231 0.000000
0.000000 0.943197 0.000000
0.000000 0.943167 0.000000
0.000000 0.943140 0.000000
0.000000 0.943114 0.000000
0.000000 0.943083 0.000000
0.000000 0.943044 0.000000
0.000000 0.942993 0.000000
0.000000 0.942927 0.000000
0.000000 0.942842 0.000000
0.000000 0.942732 0.000000
0.000000 0.942591 0.000000
0.000000 0.942407 0.000000
0.000000 0.942169 0.000000
0.000000 0.941861 0.000000
0.000000 0.941459 0.000000
0.000000 0.940935 0.000000
0.120945 0.940249 0.000000
0.647049 0.939346 0.000000
0.823554 0.938149 0.000000
0.899780 0.936551 0.000000
0.939358 0.934392 0.000000
0.962552 0.931429 0.000000
0.977274 0.927276 0.000000
0.987139 0.921280 0.000000
0.994006 0.912245 0.000000
0.998918 0.897728 0.000000
1.000000 0.871868 0.000000
1.000000 0.816545 0.000000
1.000000 0.642054 0.000000
0.000000 0.959343 0.000000
0.000000 0.959266 0.000000
0.000000 0.959234 0.000000
0.000000 0.959210 0.000000
0.000000 0.959189 0.000000
0.000000 0.959171 0.000000
0.000000 0.959155 0.000000
0.000000 0.959139 0.000000
0.000000 0.959121 0.000000
0.000000 0.959097 0.000000
0.000000 0.959067 0.000000
0.000000 0.959027 0.000000
0.000000 0.958976 0.000000
0.000000 0.958910 0.000000
0.000000 0.958825 0.000000
0.000000 0.958715 0.000000
0.000000 0.958573 0.000000
0.000000 0.958389 0.000000
0.000000 0.958150 0.000000
0.000000 0.957838 0.000000
0.000000 0.957432 0.000000
0.148717 0.956900 0.000000
0.711862 0.956200 0.000000
0.864257 0.955272 0.000000
0.925283 0.954032 0.000000
0.956186 0.952356 0.000000
0.974143 0.950055 0.000000
0.985511 0.946826 0.000000
0.993127 0.942157 0.000000
0.998430 0.935104 0.000000
1.000000 0.923724 0.000000
1.000000 0.903284 0.000000
1.000000 0.858681 0.000000
0.000000 0.971651 0.000000
0.000000 0.971605 0.000000
0.000000 0.971586 0.000000
0.000000 0.971572 0.000000
0.000000 0.971559 0.000000
0.000000 0.971548 0.000000
0.000000 0.971539 0.000000
0.000000 0.971529 0.000000
0.000000 0.971518 0.000000
0.000000 0.971504 0.000000
0.000000 0.971486 0.000000
0.000000 0.971462 0.000000
0.000000 0.971432 0.000000
0.000000 0.971392 0.000000
0.000000 0.971341 0.000000
0.000000 0.971276 0.000000
0.000000 0.971191 0.000000
0.000000 0.971081 0.000000
0.000000 0.970938 0.000000
0.000000 0.970754 0.000000
0.000000 0.970513 0.000000
0.000000 0.970199 0.000000
0.181555 0.969788 0.000000
0.769866 0.969247 0.000000
