color_science/AppleLog_to_Rec709_Gamma24.cube
TITLE "Vesper Cine Apple Log to Rec.709 (Gamma 2.4)"
# Generated by color_science/generate_applelog_lut.py
LUT_3D_SIZE 5
DOMAIN_MIN 0.0 0.0 0.0
DOMAIN_MAX 1.0 1.0 1.0
0.000000 0.000000 0.000000
0.285191 0.000000 0.000000
0.704428 0.000000 0.000000
0.966455 0.000000 0.000000
1.000000 0.000000 0.000000
0.000000 0.160039 0.000000
0.143015 0.123725 0.000000
0.673029 0.000000 0.000000
0.965654 0.000000 0.000000
1.000000 0.000000 0.000000
0.000000 0.586006 0.000000
0.000000 0.575041 0.000000
0.567582 0.546221 0.000000
0.963583 0.167842 0.000000
1.000000 0.000000 0.000000
0.000000 0.943452 0.000000
0.000000 0.943083 0.000000
0.000000 0.942169 0.000000
0.939358 0.934392 0.000000
1.000000 0.642054 0.000000
0.000000 1.000000 0.000000
0.000000 1.000000 0.000000
0.000000 1.000000 0.000000
0.000000 1.000000 0.000000
1.000000 1.000000 0.000000
0.000000 0.000000 0.156108
0.269920 0.000000 0.150979
0.700821 0.000000 0.138152
0.966357 0.000000 0.000000
1.000000 0.000000 0.000000
0.000000 0.157734 0.126755
0.121161 0.121154 0.121146
0.668747 0.000000 0.106976
0.965553 0.000000 0.000000
1.000000 0.000000 0.000000
0.000000 0.585290 0.027377
0.000000 0.574294 0.000000
0.560762 0.545390 0.000000
0.963473 0.165584 0.000000
1.000000 0.000000 0.000000
0.000000 0.943427 0.000000
0.000000 0.943059 0.000000
0.000000 0.942144 0.000000
0.939118 0.934361 0.000000
1.000000 0.641491 0.000000
0.000000 1.000000 0.000000
0.000000 1.000000 0.000000
0.000000 1.000000 0.000000
0.000000 1.000000 0.000000
1.000000 1.000000 0.000000
0.000000 0.000000 0.581772
0.230295 0.000000 0.580173
0.691703 0.000000 0.576231
0.966117 0.000000 0.544246
1.000000 0.000000 0.084933
0.000000 0.152051 0.572806
0.056981 0.114785 0.571150
0.657899 0.000000 0.567069
0.965304 0.000000 0.533926
1.000000 0.000000 0.040619
0.000000 0.583536 0.549579
0.000000 0.572462 0.547775
0.543379 0.543352 0.543325
0.963203 0.160022 0.507123
1.000000 0.000000 0.000000
0.000000 0.943368 0.280809
0.000000 0.942999 0.277003
0.000000 0.942082 0.267580
0.938526 0.934286 0.188588
1.000000 0.640112 0.000000
0.000000 1.000000 0.000000
0.000000 1.000000 0.000000
0.000000 1.000000 0.000000
0.000000 1.000000 0.000000
1.000000 1.000000 0.000000
0.000000 0.000000 0.942524
0.000000 0.000000 0.942469
0.603999 0.000000 0.942334
0.964212 0.000000 0.941298
1.000000 0.000000 0.932354
0.000000 0.105387 0.942219
0.000000 0.058661 0.942164
0.551911 0.000000 0.942028
0.963333 0.000000 0.940983
1.000000 0.000000 0.931958
0.000000 0.569817 0.941465
0.000000 0.558136 0.941408
0.365960 0.527393 0.941270
0.961054 0.114622 0.940203
1.000000 0.000000 0.930974
0.000000 0.942912 0.935187
0.000000 0.942538 0.935121
0.000000 0.941610 0.934958
0.933715 0.933707 0.933699
1.000000 0.629356 0.922684
0.000000 1.000000 0.794566
0.000000 1.000000 0.794088
0.000000 1.000000 0.792914
0.000000 1.000000 0.783611
1.000000 1.000000 0.680833
0.000000 0.000000 1.000000
0.000000 0.000000 1.000000
0.000000 0.000000 1.000000
0.942730 0.000000 1.000000
1.000000 0.000000 1.000000
0.000000 0.000000 1.000000
0.000000 0.000000 1.000000
0.000000 0.000000 1.000000
0.940923 0.000000 1.000000
1.000000 0.000000 1.000000
0.000000 0.436733 1.000000
0.000000 0.418688 1.000000
0.000000 0.370660 1.000000
0.936112 0.000000 1.000000
1.000000 0.000000 1.000000
0.000000 0.939256 1.000000
0.000000 0.938843 1.000000
0.000000 0.937817 1.000000
0.860474 0.929027 1.000000
1.000000 0.526977 1.000000
0.000000 1.000000 1.000000
0.000000 1.000000 1.000000
0.000000 1.000000 1.000000
0.000000 1.000000 1.000000
1.000000 1.000000 1.000000
