color_science/R-Log_to_Rec709.cube
# Project RawEdge - R-Log to Rec.709 Technical LUT
# Calibrated for Google Pixel Sensor Linearization
LUT_3D_SIZE 33
0.000000 0.000000 0.000000
0.000000 0.000000 0.000000
0.000000 0.000000 0.000000
0.000000 0.000000 0.000000
0.000000 0.000000 0.000000
0.000000 0.000000 0.000000
0.000000 0.000000 0.000000
0.000000 0.000000 0.000000
0.000000 0.000000 0.000000
0.000000 0.000000 0.000000
0.000000 0.000000 0.000000
0.000000 0.000000 0.000000
0.000000 0.000000 0.000000
0.019349 0.000000 0.000000
0.088624 0.000000 0.000000
0.188281 0.000000 0.000000
0.298599 0.000000 0.000000
0.405791 0.000000 0.000000
0.502611 0.000000 0.000000
0.586504 0.000000 0.000000
0.657543 0.000000 0.000000
0.716990 0.000000 0.000000
0.766487 0.000000 0.000000
0.807655 0.000000 0.000000
0.841939 0.000000 0.000000
0.870565 0.000000 0.000000
0.894542 0.000000 0.000000
0.914694 0.000000 0.000000
0.931691 0.000000 0.000000
0.946073 0.000000 0.000000
0.958281 0.000000 0.000000
0.968672 0.000000 0.000000
0.977541 0.000000 0.000000
0.000000 0.000000 0.000000
0.000000 0.000000 0.000000
0.000000 0.000000 0.000000
0.000000 0.000000 0.000000
0.000000 0.000000 0.000000
0.000000 0.000000 0.000000
0.000000 0.000000 0.000000
0.000000 0.000000 0.000000
0.000000 0.000000 0.000000
0.000000 0.000000 0.000000
0.000000 0.000000 0.000000
0.000000 0.000000 0.000000
0.000000 0.000000 0.000000
0.019349 0.000000 0.000000
0.088624 0.000000 0.000000
0.188281 0.000000 0.000000
0.298599 0.000000 0.000000
0.405791 0.000000 0.000000
0.502611 0.000000 0.000000
0.586504 0.000000 0.000000
0.657543 0.000000 0.000000
0.716990 0.000000 0.000000
0.766487 0.000000 0.000000
0.807655 0.000000 0.000000
0.841939 0.000000 0.000000
0.870565 0.000000 0.000000
0.894542 0.000000 0.000000
0.914694 0.000000 0.000000
0.931691 0.000000 0.000000
0.946073 0.000000 0.000000
0.958281 0.000000 0.000000
0.968672 0.000000 0.000000
0.977541 0.000000 0.000000
0.000000 0.000000 0.000000
0.000000 0.000000 0.000000
0.000000 0.000000 0.000000
0.000000 0.000000 0.000000
0.000000 0.000000 0.000000
0.000000 0.000000 0.000000
0.000000 0.000000 0.000000
0.000000 0.000000 0.000000
0.000000 0.000000 0.000000
0.000000 0.000000 0.000000
0.000000 0.000000 0.000000
0.000000 0.000000 0.000000
0.000000 0.000000 0.000000
0.019349 0.000000 0.000000
0.088624 0.000000 0.000000
0.188281 0.000000 0.000000
0.298599 0.000000 0.000000
0.405791 0.000000 0.000000
0.502611 0.000000 0.000000
0.586504 0.000000 0.000000
0.657543 0.000000 0.000000
0.716990 0.000000 0.000000
0.766487 0.000000 0.000000
0.807655 0.000000 0.000000
0.841939 0.000000 0.000000
0.870565 0.000000 0.000000
0.894542 0.000000 0.000000
0.914694 0.000000 0.000000
0.931691 0.000000 0.000000
0.946073 0.000000 0.000000
0.958281 0.000000 0.000000
0.968672 0.000000 0.000000
0.977541 0.000000 0.000000
0.000000 0.000000 0.000000
0.000000 0.000000 0.000000
0.000000 0.000000 0.000000
0.000000 0.000000 0.000000
0.000000 0.000000 0.000000
0.000000 0.000000 0.000000
0.000000 0.000000 0.000000
0.000000 0.000000 0.000000
0.000000 0.000000 0.000000
0.000000 0.000000 0.000000
0.000000 0.000000 0.000000
0.000000 0.000000 0.000000
0.000000 0.000000 0.000000
0.019349 0.000000 0.000000
0.088624 0.000000 0.000000
0.188281 0.000000 0.000000
0.298599 0.000000 0.000000
0.405791 0.000000 0.000000
0.502611 0.000000 0.000000
0.586504 0.000000 0.000000
0.657543 0.000000 0.000000
0.716990 0.000000 0.000000
0.766487 0.000000 0.000000
0.807655 0.000000 0.000000
0.841939 0.000000 0.000000
0.870565 0.000000 0.000000
0.894542 0.000000 0.000000
0.914694 0.000000 0.000000
0.931691 0.000000 0.000000
0.946073 0.000000 0.000000
0.958281 0.000000 0.000000
0.968672 0.000000 0.000000
0.977541 0.000000 0.000000
0.000000 0.000000 0.000000
0.000000 0.000000 0.000000
0.000000 0.000000 0.000000
0.000000 0.000000 0.000000
0.000000 0.000000 0.000000
0.000000 0.000000 0.000000
0.000000 0.000000 0.000000
0.000000 0.000000 0.000000
0.000000 0.000000 0.000000
0.000000 0.000000 0.000000
0.000000 0.000000 0.000000
0.000000 0.000000 0.000000
0.000000 0.000000 0.000000
0.019349 0.000000 0.000000
0.088624 0.000000 0.000000
0.188281 0.000000 0.000000
0.298599 0.000000 0.000000
0.405791 0.000000 0.000000
0.502611 0.000000 0.000000
0.586504 0.000000 0.000000
0.657543 0.000000 0.000000
0.716990 0.000000 0.000000
0.766487 0.000000 0.000000
0.807655 0.000000 0.000000
0.841939 0.000000 0.000000
0.870565 0.000000 0.000000
0.894542 0.000000 0.000000
0.914694 0.000000 0.000000
0.931691 0.000000 0.000000
0.946073 0.000000 0.000000
0.958281 0.000000 0.000000
0.968672 0.000000 0.000000
0.977541 0.000000 0.000000
0.000000 0.000000 0.000000
0.000000 0.000000 0.000000
0.000000 0.000000 0.000000
0.000000 0.000000 0.000000
0.000000 0.000000 0.000000
0.000000 0.000000 0.000000
0.000000 0.000000 0.000000
0.000000 0.000000 0.000000
0.000000 0.000000 0.000000
0.000000 0.000000 0.000000
0.000000 0.000000 0.000000
0.000000 0.000000 0.000000
0.000000 0.000000 0.000000
0.019349 0.000000 0.000000
0.088624 0.000000 0.000000
0.188281 0.000000 0.000000
0.298599 0.000000 0.000000
0.405791 0.000000 0.000000
0.502611 0.000000 0.000000
0.586504 0.000000 0.000000
0.657543 0.000000 0.000000
0.716990 0.000000 0.000000
0.766487 0.000000 0.000000
0.807655 0.000000 0.000000
0.841939 0.000000 0.000000
0.870565 0.000000 0.000000
0.894542 0.000000 0.000000
0.914694 0.000000 0.000000
0.931691 0.000000 0.000000
0.946073 0.000000 0.000000
0.958281 0.000000 0.000000
0.968672 0.000000 0.000000
0.977541 0.000000 0.000000
0.000000 0.000000 0.000000
0.000000 0.000000 0.000000
0.000000 0.000000 0.000000
0.000000 0.000000 0.000000
0.000000 0.000000 0.000000
0.000000 0.000000 0.000000
0.000000 0.000000 0.000000
0.000000 0.000000 0.000000
0.000000 0.000000 0.000000
0.000000 0.000000 0.000000
0.000000 0.000000 0.000000
0.000000 0.000000 0.000000
0.000000 0.000000 0.000000
0.019349 0.000000 0.000000
0.088624 0.000000 0.000000
0.188281 0.000000 0.000000
0.298599 0.000000 0.000000
0.405791 0.000000 0.000000
0.502611 0.000000 0.000000
0.586504 0.000000 0.000000
0.657543 0.000000 0.000000
0.716990 0.000000 0.000000
0.766487 0.000000 0.000000
0.807655 0.000000 0.000000
0.841939 0.000000 0.000000
0.870565 0.000000 0.000000
0.894542 0.000000 0.000000
0.914694 0.000000 0.000000
0.931691 0.000000 0.000000
0.946073 0.000000 0.000000
0.958281 0.000000 0.000000
0.968672 0.000000 0.000000
0.977541 0.000000 0.000000
0.000000 0.000000 0.000000
0.000000 0.000000 0.000000
0.000000 0.000000 0.000000
0.000000 0.000000 0.000000
0.000000 0.000000 0.000000
0.000000 0.000000 0.000000
0.000000 0.000000 0.000000
0.000000 0.000000 0.000000
0.000000 0.000000 0.000000
0.000000 0.000000 0.000000
0.000000 0.000000 0.000000
0.000000 0.000000 0.000000
0.000000 0.000000 0.000000
0.019349 0.000000 0.000000
0.088624 0.000000 0.000000
0.188281 0.000000 0.000000
0.298599 0.000000 0.000000
0.405791 0.000000 0.000000
0.502611 0.000000 0.000000
0.586504 0.000000 0.000000
0.657543 0.000000 0.000000
0.716990 0.000000 0.000000
0.766487 0.000000 0.000000
0.807655 0.000000 0.000000
0.841939 0.000000 0.000000
0.870565 0.000000 0.000000
0.894542 0.000000 0.000000
0.914694 0.000000 0.000000
0.931691 0.000000 0.000000
0.946073 0.000000 0.000000
0.958281 0.000000 0.000000
0.968672 0.000000 0.000000
0.977541 0.000000 0.000000
0.000000 0.000000 0.000000
0.000000 0.000000 0.000000
0.000000 0.000000 0.000000
0.000000 0.000000 0.000000
0.000000 0.000000 0.000000
0.000000 0.000000 0.000000
0.000000 0.000000 0.000000
0.000000 0.000000 0.000000
0.000000 0.000000 0.000000
0.000000 0.000000 0.000000
0.000000 0.000000 0.000000
0.000000 0.000000 0.000000
0.000000 0.000000 0.000000
0.019349 0.000000 0.000000
0.088624 0.000000 0.000000
0.188281 0.000000 0.000000
0.298599 0.000000 0.000000
0.405791 0.000000 0.000000
0.502611 0.000000 0.000000
0.586504 0.000000 0.000000
0.657543 0.000000 0.000000
0.716990 0.000000 0.000000
0.766487 0.000000 0.000000
0.807655 0.000000 0.000000
0.841939 0.000000 0.000000
0.870565 0.000000 0.000000
0.894542 0.000000 0.000000
0.914694 0.000000 0.000000
0.931691 0.000000 0.000000
0.946073 0.000000 0.000000
0.958281 0.000000 0.000000
0.968672 0.000000 0.000000
0.977541 0.000000 0.000000
0.000000 0.000000 0.000000
0.000000 0.000000 0.000000
0.000000 0.000000 0.000000
0.000000 0.000000 0.000000
0.000000 0.000000 0.000000
0.000000 0.000000 0.000000
0.000000 0.000000 0.000000
0.000000 0.000000 0.000000
0.000000 0.000000 0.000000
0.000000 0.000000 0.000000
0.000000 0.000000 0.000000
0.000000 0.000000 0.000000
0.000000 0.000000 0.000000
0.019349 0.000000 0.000000
0.088624 0.000000 0.000000
0.188281 0.000000 0.000000
0.298599 0.000000 0.000000
0.405791 0.000000 0.000000
0.502611 0.000000 0.000000
0.586504 0.000000 0.000000
0.657543 0.000000 0.000000
0.716990 0.000000 0.000000
0.766487 0.000000 0.000000
0.807655 0.000000 0.000000
0.841939 0.000000 0.000000
0.870565 0.000000 0.000000
0.894542 0.000000 0.000000
0.914694 0.000000 0.000000
0.931691 0.000000 0.000000
0.946073 0.000000 0.000000
0.958281 0.000000 0.000000
0.968672 0.000000 0.000000
0.977541 0.000000 0.000000
0.000000 0.000000 0.000000
0.000000 0.000000 0.000000
0.000000 0.000000 0.000000
0.000000 0.000000 0.000000
0.000000 0.000000 0.000000
0.000000 0.000000 0.000000
0.000000 0.000000 0.000000
0.000000 0.000000 0.000000
0.000000 0.000000 0.000000
0.000000 0.000000 0.000000
0.000000 0.000000 0.000000
0.000000 0.000000 0.000000
0.000000 0.000000 0.000000
0.019349 0.000000 0.000000
0.088624 0.000000 0.000000
0.188281 0.000000 0.000000
0.298599 0.000000 0.000000
0.405791 0.000000 0.000000
0.502611 0.000000 0.000000
0.586504 0.000000 0.000000
0.657543 0.000000 0.000000
0.716990 0.000000 0.000000
0.766487 0.000000 0.000000
0.807655 0.000000 0.000000
0.841939 0.000000 0.000000
0.870565 0.000000 0.000000
0.894542 0.000000 0.000000
0.914694 0.000000 0.000000
0.931691 0.000000 0.000000
0.946073 0.000000 0.000000
0.958281 0.000000 0.000000
0.968672 0.000000 0.000000
0.977541 0.000000 0.000000
0.000000 0.000000 0.000000
0.000000 0.000000 0.000000
0.000000 0.000000 0.000000
0.000000 0.000000 0.000000
0.000000 0.000000 0.000000
0.000000 0.000000 0.000000
0.000000 0.000000 0.000000
0.000000 0.000000 0.000000
0.000000 0.000000 0.000000
0.000000 0.000000 0.000000
0.000000 0.000000 0.000000
0.000000 0.000000 0.000000
0.000000 0.000000 0.000000
0.019349 0.000000 0.000000
0.088624 0.000000 0.000000
0.188281 0.000000 0.000000
0.298599 0.000000 0.000000
0.405791 0.000000 0.000000
0.502611 0.000000 0.000000
0.586504 0.000000 0.000000
0.657543 0.000000 0.000000
0.716990 0.000000 0.000000
0.766487 0.000000 0.000000
0.807655 0.000000 0.000000
0.841939 0.000000 0.000000
0.870565 0.000000 0.000000
0.894542 0.000000 0.000000
0.914694 0.000000 0.000000
0.931691 0.000000 0.000000
0.946073 0.000000 0.000000
0.958281 0.000000 0.000000
0.968672 0.000000 0.000000
0.977541 0.000000 0.000000
0.000000 0.000000 0.000000
0.000000 0.000000 0.000000
0.000000 0.000000 0.000000
0.000000 0.000000 0.000000
0.000000 0.000000 0.000000
0.000000 0.000000 0.000000
0.000000 0.000000 0.000000
0.000000 0.000000 0.000000
0.000000 0.000000 0.000000
0.000000 0.000000 0.000000
0.000000 0.000000 0.000000
0.000000 0.000000 0.000000
0.000000 0.000000 0.000000
0.019349 0.000000 0.000000
0.088624 0.000000 0.000000
0.188281 0.000000 0.000000
0.298599 0.000000 0.000000
0.405791 0.000000 0.000000
0.502611 0.000000 0.000000
0.586504 0.000000 0.000000
0.657543 0.000000 0.000000
0.716990 0.000000 0.000000
0.766487 0.000000 0.000000
0.807655 0.000000 0.000000
0.841939 0.000000 0.000000
0.870565 0.000000 0.000000
0.894542 0.000000 0.000000
0.914694 0.000000 0.000000
0.931691 0.000000 0.000000
0.946073 0.000000 0.000000
0.958281 0.000000 0.000000
0.968672 0.000000 0.000000
0.977541 0.000000 0.000000
0.000000 0.010660 0.000000
0.000000 0.010660 0.000000
0.000000 0.010660 0.000000
0.000000 0.010660 0.000000
0.000000 0.010660 0.000000
0.000000 0.010660 0.000000
0.000000 0.010660 0.000000
0.000000 0.010660 0.000000
0.000000 0.010660 0.000000
0.000000 0.010660 0.000000
0.000000 0.010660 0.000000
0.000000 0.010660 0.000000
0.000000 0.010660 0.000000
0.017114 0.003623 0.000000
0.084909 0.000000 0.000000
0.184299 0.000000 0.000000
0.295044 0.000000 0.000000
0.402911 0.000000 0.000000
0.500403 0.000000 0.000000
0.584863 0.000000 0.000000
0.656342 0.000000 0.000000
0.716119 0.000000 0.000000
0.765856 0.000000 0.000000
0.807198 0.000000 0.000000
0.841608 0.000000 0.000000
0.870324 0.000000 0.000000
0.894366 0.000000 0.000000
0.914566 0.000000 0.000000
0.931596 0.000000 0.000000
0.946003 0.000000 0.000000
0.958229 0.000000 0.000000
0.968634 0.000000 0.000000
0.977512 0.000000 0.000000
0.000000 0.049366 0.000000
0.000000 0.049366 0.000000
0.000000 0.049366 0.000000
0.000000 0.049366 0.000000
0.000000 0.049366 0.000000
0.000000 0.049366 0.000000
0.000000 0.049366 0.000000
0.000000 0.049366 0.000000
0.000000 0.049366 0.000000
0.000000 0.049366 0.000000
0.000000 0.049366 0.000000
0.000000 0.049366 0.000000
0.000000 0.049366 0.000000
0.013662 0.035065 0.000000
0.078845 0.015583 0.000000
0.177705 0.001839 0.000000
0.289123 0.000000 0.000000
0.398106 0.000000 0.000000
0.496719 0.000000 0.000000
0.582126 0.000000 0.000000
0.654343 0.000000 0.000000
0.714670 0.000000 0.000000
0.764808 0.000000 0.000000
0.806440 0.000000 0.000000
0.841059 0.000000 0.000000
0.869924 0.000000 0.000000
0.894074 0.000000 0.000000
0.914352 0.000000 0.000000
0.931439 0.000000 0.000000
0.945888 0.000000 0.000000
0.958144 0.000000 0.000000
0.968571 0.000000 0.000000
0.977465 0.000000 0.000000
0.000000 0.111660 0.000000
0.000000 0.111660 0.000000
0.000000 0.111660 0.000000
0.000000 0.111660 0.000000
0.000000 0.111660 0.000000
0.000000 0.111660 0.000000
0.000000 0.111660 0.000000
0.000000 0.111660 0.000000
0.000000 0.111660 0.000000
0.000000 0.111660 0.000000
0.000000 0.111660 0.000000
0.000000 0.111660 0.000000
0.000000 0.111660 0.000000
0.010092 0.093581 0.000000
0.072010 0.065254 0.000000
0.170113 0.036551 0.000000
0.282255 0.011651 0.000000
0.392519 0.000000 0.000000
0.492434 0.000000 0.000000
0.578944 0.000000 0.000000
0.652020 0.000000 0.000000
0.712988 0.000000 0.000000
0.763594 0.000000 0.000000
0.805563 0.000000 0.000000
0.840423 0.000000 0.000000
0.869463 0.000000 0.000000
0.893738 0.000000 0.000000
0.914106 0.000000 0.000000
0.931258 0.000000 0.000000
0.945754 0.000000 0.000000
0.958045 0.000000 0.000000
0.968498 0.000000 0.000000
0.977411 0.000000 0.000000
0.000000 0.190535 0.000000
0.000000 0.190535 0.000000
0.000000 0.190535 0.000000
0.000000 0.190535 0.000000
0.000000 0.190535 0.000000
0.000000 0.190535 0.000000
0.000000 0.190535 0.000000
0.000000 0.190535 0.000000
0.000000 0.190535 0.000000
0.000000 0.190535 0.000000
0.000000 0.190535 0.000000
0.000000 0.190535 0.000000
0.000000 0.190535 0.000000
0.006553 0.171728 0.000000
0.064355 0.140568 0.000000
0.161382 0.105368 0.000000
0.274280 0.067322 0.000000
0.386010 0.030175 0.000000
0.487439 0.003264 0.000000
0.575239 0.000000 0.000000
0.649320 0.000000 0.000000
0.711036 0.000000 0.000000
0.762186 0.000000 0.000000
0.804547 0.000000 0.000000
0.839688 0.000000 0.000000
0.868929 0.000000 0.000000
0.893349 0.000000 0.000000
0.913821 0.000000 0.000000
0.931050 0.000000 0.000000
0.945600 0.000000 0.000000
0.957931 0.000000 0.000000
0.968413 0.000000 0.000000
0.977348 0.000000 0.000000
0.000000 0.278007 0.000000
0.000000 0.278007 0.000000
0.000000 0.278007 0.000000
0.000000 0.278007 0.000000
0.000000 0.278007 0.000000
0.000000 0.278007 0.000000
0.000000 0.278007 0.000000
0.000000 0.278007 0.000000
0.000000 0.278007 0.000000
0.000000 0.278007 0.000000
0.000000 0.278007 0.000000
0.000000 0.278007 0.000000
0.000000 0.278007 0.000000
0.003289 0.260568 0.000000
0.055857 0.230916 0.000000
0.151352 0.195819 0.000000
0.265010 0.154743 0.000000
0.378413 0.108002 0.000000
0.481607 0.058355 0.000000
0.570916 0.014831 0.000000
0.646174 0.000000 0.000000
0.708765 0.000000 0.000000
0.760551 0.000000 0.000000
0.803368 0.000000 0.000000
0.838837 0.000000 0.000000
0.868312 0.000000 0.000000
0.892900 0.000000 0.000000
0.913493 0.000000 0.000000
0.930809 0.000000 0.000000
0.945423 0.000000 0.000000
0.957800 0.000000 0.000000
0.968316 0.000000 0.000000
0.977276 0.000000 0.000000
0.000000 0.366983 0.000000
0.000000 0.366983 0.000000
0.000000 0.366983 0.000000
0.000000 0.366983 0.000000
0.000000 0.366983 0.000000
0.000000 0.366983 0.000000
0.000000 0.366983 0.000000
0.000000 0.366983 0.000000
0.000000 0.366983 0.000000
0.000000 0.366983 0.000000
0.000000 0.366983 0.000000
0.000000 0.366983 0.000000
0.000000 0.366983 0.000000
0.000692 0.351998 0.000000
0.046546 0.326221 0.000000
0.139855 0.295080 0.000000
0.254222 0.257389 0.000000
0.369528 0.211915 0.000000
0.474779 0.157878 0.000000
0.565860 0.096493 0.000000
0.642500 0.035354 0.000000
0.706118 0.000000 0.000000
0.758649 0.000000 0.000000
0.802000 0.000000 0.000000
0.837849 0.000000 0.000000
0.867597 0.000000 0.000000
0.892380 0.000000 0.000000
0.913113 0.000000 0.000000
0.930531 0.000000 0.000000
0.945219 0.000000 0.000000
0.957649 0.000000 0.000000
0.968205 0.000000 0.000000
0.977193 0.000000 0.000000
0.000000 0.452261 0.000000
0.000000 0.452261 0.000000
0.000000 0.452261 0.000000
0.000000 0.452261 0.000000
0.000000 0.452261 0.000000
0.000000 0.452261 0.000000
0.000000 0.452261 0.000000
0.000000 0.452261 0.000000
0.000000 0.452261 0.000000
0.000000 0.452261 0.000000
0.000000 0.452261 0.000000
0.000000 0.452261 0.000000
0.000000 0.452261 0.000000
0.000000 0.440037 0.000000
0.036546 0.418930 0.000000
0.126723 0.393243 0.000000
0.241656 0.361758 0.000000
0.359110 0.322910 0.000000
0.466762 0.274795 0.000000
0.559930 0.215445 0.000000
0.638200 0.144092 0.000000
0.703027 0.065659 0.000000
0.756431 0.004781 0.000000
0.800408 0.000000 0.000000
0.836703 0.000000 0.000000
0.866768 0.000000 0.000000
0.891778 0.000000 0.000000
0.912674 0.000000 0.000000
0.930209 0.000000 0.000000
0.944982 0.000000 0.000000
0.957475 0.000000 0.000000
0.968076 0.000000 0.000000
0.977098 0.000000 0.000000
0.000000 0.530681 0.000000
0.000000 0.530681 0.000000
0.000000 0.530681 0.000000
0.000000 0.530681 0.000000
0.000000 0.530681 0.000000
0.000000 0.530681 0.000000
0.000000 0.530681 0.000000
0.000000 0.530681 0.000000
0.000000 0.530681 0.000000
0.000000 0.530681 0.000000
0.000000 0.530681 0.000000
0.000000 0.530681 0.000000
0.000000 0.530681 0.000000
0.000000 0.521058 0.000000
0.026137 0.504450 0.000000
0.111810 0.484231 0.000000
0.227012 0.459393 0.000000
0.346862 0.428573 0.000000
0.457321 0.389920 0.000000
0.552954 0.340957 0.000000
0.633152 0.278585 0.000000
0.699407 0.199842 0.000000
0.753841 0.105884 0.000000
0.798552 0.017916 0.000000
0.835369 0.000000 0.000000
0.865805 0.000000 0.000000
0.891080 0.000000 0.000000
0.912166 0.000000 0.000000
0.929837 0.000000 0.000000
0.944709 0.000000 0.000000
0.957274 0.000000 0.000000
0.967927 0.000000 0.000000
0.976987 0.000000 0.000000
0.000000 0.600764 0.000000
0.000000 0.600764 0.000000
0.000000 0.600764 0.000000
0.000000 0.600764 0.000000
0.000000 0.600764 0.000000
0.000000 0.600764 0.000000
0.000000 0.600764 0.000000
0.000000 0.600764 0.000000
0.000000 0.600764 0.000000
0.000000 0.600764 0.000000
0.000000 0.600764 0.000000
0.000000 0.600764 0.000000
0.000000 0.600764 0.000000
0.000000 0.593370 0.000000
0.015871 0.580641 0.000000
0.095030 0.565194 0.000000
0.209947 0.546273 0.000000
0.332423 0.522850 0.000000
0.446160 0.493490 0.000000
0.544715 0.456160 0.000000
0.627205 0.407968 0.000000
0.695154 0.344862 0.000000
0.750808 0.261760 0.000000
0.796385 0.155358 0.000000
0.833815 0.040203 0.000000
0.864685 0.000000 0.000000
0.890269 0.000000 0.000000
0.911577 0.000000 0.000000
0.929407 0.000000 0.000000
0.944393 0.000000 0.000000
0.957041 0.000000 0.000000
0.967755 0.000000 0.000000
0.976860 0.000000 0.000000
0.000000 0.662201 0.000000
0.000000 0.662201 0.000000
0.000000 0.662201 0.000000
0.000000 0.662201 0.000000
0.000000 0.662201 0.000000
0.000000 0.662201 0.000000
0.000000 0.662201 0.000000
0.000000 0.662201 0.000000
0.000000 0.662201 0.000000
0.000000 0.662201 0.000000
0.000000 0.662201 0.000000
0.000000 0.662201 0.000000
0.000000 0.662201 0.000000
0.000000 0.656608 0.000000
0.006753 0.647016 0.000000
0.076438 0.635430 0.000000
0.190088 0.621315 0.000000
0.315350 0.603944 0.000000
0.432911 0.582304 0.000000
0.534944 0.554953 0.000000
0.620172 0.519786 0.000000
0.690142 0.473663 0.000000
0.747244 0.411851 0.000000
0.793846 0.327460 0.000000
0.831999 0.212608 0.000000
0.863380 0.072353 0.000000
0.889327 0.000000 0.000000
0.910892 0.000000 0.000000
0.928908 0.000000 0.000000
0.944028 0.000000 0.000000
0.956772 0.000000 0.000000
0.967556 0.000000 0.000000
0.976713 0.000000 0.000000
0.000000 0.715379 0.000000
0.000000 0.715379 0.000000
0.000000 0.715379 0.000000
0.000000 0.715379 0.000000
0.000000 0.715379 0.000000
0.000000 0.715379 0.000000
0.000000 0.715379 0.000000
0.000000 0.715379 0.000000
0.000000 0.715379 0.000000
0.000000 0.715379 0.000000
0.000000 0.715379 0.000000
0.000000 0.715379 0.000000
0.000000 0.715379 0.000000
0.000000 0.711192 0.000000
0.000531 0.704039 0.000000
0.056373 0.695444 0.000000
0.167060 0.685037 0.000000
0.295107 0.672321 0.000000
0.417109 0.656612 0.000000
0.523298 0.636946 0.000000
0.611815 0.611925 0.000000
0.684210 0.579462 0.000000
0.743042 0.536333 0.000000
0.790863 0.477412 0.000000
0.829873 0.394485 0.000000
0.861856 0.275540 0.000000
0.888228 0.114362 0.000000
0.910097 0.000000 0.000000
0.928328 0.000000 0.000000
0.943604 0.000000 0.000000
0.956461 0.000000 0.000000
0.967327 0.000000 0.000000
0.976543 0.000000 0.000000
0.000000 0.761044 0.000000
0.000000 0.761044 0.000000
0.000000 0.761044 0.000000
0.000000 0.761044 0.000000
0.000000 0.761044 0.000000
0.000000 0.761044 0.000000
0.000000 0.761044 0.000000
0.000000 0.761044 0.000000
0.000000 0.761044 0.000000
0.000000 0.761044 0.000000
0.000000 0.761044 0.000000
0.000000 0.761044 0.000000
0.000000 0.761044 0.000000
0.000000 0.757928 0.000000
0.000000 0.752625 0.000000
0.035730 0.746287 0.000000
0.140565 0.738660 0.000000
0.271051 0.729409 0.000000
0.398165 0.718080 0.000000
0.509336 0.704042 0.000000
0.601831 0.686400 0.000000
0.677154 0.663838 0.000000
0.738067 0.634354 0.000000
0.787347 0.594779 0.000000
0.827375 0.539863 0.000000
0.860072 0.460600 0.000000
0.886946 0.341726 0.000000
0.909170 0.165406 0.000000
0.927655 0.000230 0.000000
0.943112 0.000000 0.000000
0.956100 0.000000 0.000000
0.967061 0.000000 0.000000
0.976347 0.000000 0.000000
0.000000 0.800073 0.000000
0.000000 0.800073 0.000000
0.000000 0.800073 0.000000
0.000000 0.800073 0.000000
0.000000 0.800073 0.000000
0.000000 0.800073 0.000000
0.000000 0.800073 0.000000
0.000000 0.800073 0.000000
0.000000 0.800073 0.000000
0.000000 0.800073 0.000000
0.000000 0.800073 0.000000
0.000000 0.800073 0.000000
0.000000 0.800073 0.000000
0.000000 0.797762 0.000000
0.000000 0.793843 0.000000
0.016456 0.789182 0.000000
0.110548 0.783606 0.000000
0.242439 0.776889 0.000000
0.375325 0.768730 0.000000
0.492486 0.758720 0.000000
0.589827 0.746290 0.000000
0.668715 0.730622 0.000000
0.732148 0.710505 0.000000
0.783183 0.684069 0.000000
0.824430 0.648296 0.000000
0.857976 0.598037 0.000000
0.885445 0.523993 0.000000
0.908087 0.408732 0.000000
0.926870 0.223878 0.000000
0.942540 0.007319 0.000000
0.955681 0.000000 0.000000
0.966753 0.000000 0.000000
0.976119 0.000000 0.000000
0.000000 0.833352 0.000000
0.000000 0.833352 0.000000
0.000000 0.833352 0.000000
0.000000 0.833352 0.000000
0.000000 0.833352 0.000000
0.000000 0.833352 0.000000
0.000000 0.833352 0.000000
0.000000 0.833352 0.000000
0.000000 0.833352 0.000000
0.000000 0.833352 0.000000
0.000000 0.833352 0.000000
0.000000 0.833352 0.000000
0.000000 0.833352 0.000000
0.000000 0.831641 0.000000
0.000000 0.828747 0.000000
0.002426 0.825321 0.000000
0.077577 0.821244 0.000000
0.208479 0.816364 0.000000
0.347629 0.810480 0.000000
0.471996 0.803327 0.000000
0.575285 0.794539 0.000000
0.658551 0.783608 0.000000
0.725064 0.769800 0.000000
0.778228 0.752016 0.000000
0.820944 0.728548 0.000000
0.855506 0.696592 0.000000
