color_science/R-Log_to_Rec709.cube
# Project RawEdge - R-Log to Rec.709 Technical LUT
# Calibrated for Google Pixel Sensor Linearization
LUT_3D_SIZE 5
0.000000 0.000000 0.000000
0.000000 0.000000 0.000000
0.298599 0.000000 0.000000
0.841939 0.000000 0.000000
0.977541 0.000000 0.000000
0.000000 0.000000 0.000000
0.000000 0.000000 0.000000
0.298599 0.000000 0.000000
0.841939 0.000000 0.000000
0.977541 0.000000 0.000000
0.000000 0.190535 0.000000
0.000000 0.190535 0.000000
0.274280 0.067322 0.000000
0.839688 0.000000 0.000000
0.977348 0.000000 0.000000
0.000000 0.761044 0.000000
0.000000 0.761044 0.000000
0.140565 0.738660 0.000000
0.827375 0.539863 0.000000
0.976347 0.000000 0.000000
0.000000 0.951959 0.000000
0.000000 0.951959 0.000000
0.000000 0.949983 0.000000
0.778540 0.938231 0.000000
0.973070 0.867425 0.000000
0.000000 0.000000 0.000000
0.000000 0.000000 0.000000
0.298599 0.000000 0.000000
0.841939 0.000000 0.000000
0.977541 0.000000 0.000000
0.000000 0.000000 0.000000
0.000000 0.000000 0.000000
0.298599 0.000000 0.000000
0.841939 0.000000 0.000000
0.977541 0.000000 0.000000
0.000000 0.190535 0.000000
0.000000 0.190535 0.000000
0.274280 0.067322 0.000000
0.839688 0.000000 0.000000
0.977348 0.000000 0.000000
0.000000 0.761044 0.000000
0.000000 0.761044 0.000000
0.140565 0.738660 0.000000
0.827375 0.539863 0.000000
0.976347 0.000000 0.000000
0.000000 0.951959 0.000000
0.000000 0.951959 0.000000
0.000000 0.949983 0.000000
0.778540 0.938231 0.000000
0.973070 0.867425 0.000000
0.000000 0.000000 0.187482
0.000000 0.000000 0.187482
0.295101 0.000000 0.171779
0.841614 0.000000 0.092898
0.977513 0.000000 0.000000
0.000000 0.000000 0.187482
0.000000 0.000000 0.187482
0.295101 0.000000 0.171779
0.841614 0.000000 0.092898
0.977513 0.000000 0.000000
0.000000 0.168839 0.185695
0.000000 0.168839 0.185695
0.270657 0.049094 0.169985
0.839355 0.000000 0.091210
0.977320 0.000000 0.000000
0.000000 0.757445 0.176582
0.000000 0.757445 0.176582
0.136651 0.734474 0.160845
0.826999 0.529086 0.082720
0.976317 0.000000 0.000000
0.000000 0.951627 0.148829
0.000000 0.951627 0.148829
0.000000 0.949636 0.133158
0.777973 0.937778 0.058225
0.973037 0.866056 0.000000
0.000000 0.000000 0.757954
0.000000 0.000000 0.757954
0.277001 0.000000 0.755302
0.839939 0.000000 0.741007
0.977370 0.000000 0.687642
0.000000 0.000000 0.757954
0.000000 0.000000 0.757954
0.277001 0.000000 0.755302
0.839939 0.000000 0.741007
0.977370 0.000000 0.687642
0.000000 0.062591 0.757654
0.000000 0.062591 0.757654
0.251941 0.000000 0.754997
0.837641 0.000000 0.740671
0.977176 0.000000 0.687182
0.000000 0.737619 0.756117
0.000000 0.737619 0.756117
0.116878 0.711288 0.753431
0.825065 0.467502 0.738948
0.976168 0.000000 0.684818
0.000000 0.949896 0.751347
0.000000 0.949896 0.751347
0.000000 0.947818 0.748572
0.775046 0.935403 0.733595
0.972870 0.858727 0.677450
0.000000 0.000000 0.950941
0.000000 0.000000 0.950941
0.219340 0.000000 0.950696
0.834671 0.000000 0.949422
0.976930 0.000000 0.945299
0.000000 0.000000 0.950941
0.000000 0.000000 0.950941
0.219340 0.000000 0.950696
0.834671 0.000000 0.949422
0.976930 0.000000 0.945299
0.000000 0.000000 0.950913
0.000000 0.000000 0.950913
0.192810 0.000000 0.950668
0.832249 0.000000 0.949393
0.976733 0.000000 0.945267
0.000000 0.656869 0.950771
0.000000 0.656869 0.950771
0.060559 0.614859 0.950524
0.818967 0.194857 0.949245
0.975709 0.000000 0.945104
0.000000 0.944158 0.950335
0.000000 0.944158 0.950335
0.000000 0.941781 0.950085
0.765746 0.927411 0.948792
0.972356 0.832033 0.944606
