color_science/R-Log_to_Rec709.cube
# Project RawEdge - R-Log to Rec.709 Technical LUT
# Calibrated for Google Pixel Sensor Linearization
LUT_3D_SIZE 9
0.000000 0.000000 0.000000
0.000000 0.000000 0.000000
0.000000 0.000000 0.000000
0.000000 0.000000 0.000000
0.298599 0.000000 0.000000
0.657543 0.000000 0.000000
0.841939 0.000000 0.000000
0.931691 0.000000 0.000000
0.977541 0.000000 0.000000
0.000000 0.000000 0.000000
0.000000 0.000000 0.000000
0.000000 0.000000 0.000000
0.000000 0.000000 0.000000
0.298599 0.000000 0.000000
0.657543 0.000000 0.000000
0.841939 0.000000 0.000000
0.931691 0.000000 0.000000
0.977541 0.000000 0.000000
0.000000 0.000000 0.000000
0.000000 0.000000 0.000000
0.000000 0.000000 0.000000
0.000000 0.000000 0.000000
0.298599 0.000000 0.000000
0.657543 0.000000 0.000000
0.841939 0.000000 0.000000
0.931691 0.000000 0.000000
0.977541 0.000000 0.000000
0.000000 0.000000 0.000000
0.000000 0.000000 0.000000
0.000000 0.000000 0.000000
0.000000 0.000000 0.000000
0.298599 0.000000 0.000000
0.657543 0.000000 0.000000
0.841939 0.000000 0.000000
0.931691 0.000000 0.000000
0.977541 0.000000 0.000000
0.000000 0.190535 0.000000
0.000000 0.190535 0.000000
0.000000 0.190535 0.000000
0.000000 0.190535 0.000000
0.274280 0.067322 0.000000
0.649320 0.000000 0.000000
0.839688 0.000000 0.000000
0.931050 0.000000 0.000000
0.977348 0.000000 0.000000
0.000000 0.530681 0.000000
0.000000 0.530681 0.000000
0.000000 0.530681 0.000000
0.000000 0.530681 0.000000
0.227012 0.459393 0.000000
0.633152 0.278585 0.000000
0.835369 0.000000 0.000000
0.929837 0.000000 0.000000
0.976987 0.000000 0.000000
0.000000 0.761044 0.000000
0.000000 0.761044 0.000000
0.000000 0.761044 0.000000
0.000000 0.761044 0.000000
0.140565 0.738660 0.000000
0.601831 0.686400 0.000000
0.827375 0.539863 0.000000
0.927655 0.000230 0.000000
0.976347 0.000000 0.000000
0.000000 0.885860 0.000000
0.000000 0.885860 0.000000
0.000000 0.885860 0.000000
0.000000 0.885860 0.000000
0.013801 0.879296 0.000000
0.535558 0.865448 0.000000
0.811831 0.834428 0.000000
0.923623 0.742034 0.000000
0.975194 0.082134 0.000000
0.000000 0.951959 0.000000
0.000000 0.951959 0.000000
0.000000 0.951959 0.000000
0.000000 0.951959 0.000000
0.000000 0.949983 0.000000
0.369907 0.946050 0.000000
0.778540 0.938231 0.000000
0.915814 0.920651 0.000000
0.973070 0.867425 0.000000
0.000000 0.000000 0.000000
0.000000 0.000000 0.000000
0.000000 0.000000 0.000000
0.000000 0.000000 0.000000
0.298599 0.000000 0.000000
0.657543 0.000000 0.000000
0.841939 0.000000 0.000000
0.931691 0.000000 0.000000
0.977541 0.000000 0.000000
0.000000 0.000000 0.000000
0.000000 0.000000 0.000000
0.000000 0.000000 0.000000
0.000000 0.000000 0.000000
0.298599 0.000000 0.000000
0.657543 0.000000 0.000000
0.841939 0.000000 0.000000
0.931691 0.000000 0.000000
0.977541 0.000000 0.000000
0.000000 0.000000 0.000000
0.000000 0.000000 0.000000
0.000000 0.000000 0.000000
0.000000 0.000000 0.000000
0.298599 0.000000 0.000000
0.657543 0.000000 0.000000
0.841939 0.000000 0.000000
0.931691 0.000000 0.000000
0.977541 0.000000 0.000000
0.000000 0.000000 0.000000
0.000000 0.000000 0.000000
0.000000 0.000000 0.000000
0.000000 0.000000 0.000000
0.298599 0.000000 0.000000
0.657543 0.000000 0.000000
0.841939 0.000000 0.000000
0.931691 0.000000 0.000000
0.977541 0.000000 0.000000
0.000000 0.190535 0.000000
0.000000 0.190535 0.000000
0.000000 0.190535 0.000000
0.000000 0.190535 0.000000
0.274280 0.067322 0.000000
0.649320 0.000000 0.000000
0.839688 0.000000 0.000000
0.931050 0.000000 0.000000
0.977348 0.000000 0.000000
0.000000 0.530681 0.000000
0.000000 0.530681 0.000000
0.000000 0.530681 0.000000
0.000000 0.530681 0.000000
0.227012 0.459393 0.000000
0.633152 0.278585 0.000000
0.835369 0.000000 0.000000
0.929837 0.000000 0.000000
0.976987 0.000000 0.000000
0.000000 0.761044 0.000000
0.000000 0.761044 0.000000
0.000000 0.761044 0.000000
0.000000 0.761044 0.000000
0.140565 0.738660 0.000000
0.601831 0.686400 0.000000
0.827375 0.539863 0.000000
0.927655 0.000230 0.000000
0.976347 0.000000 0.000000
0.000000 0.885860 0.000000
0.000000 0.885860 0.000000
0.000000 0.885860 0.000000
0.000000 0.885860 0.000000
0.013801 0.879296 0.000000
0.535558 0.865448 0.000000
0.811831 0.834428 0.000000
0.923623 0.742034 0.000000
0.975194 0.082134 0.000000
0.000000 0.951959 0.000000
0.000000 0.951959 0.000000
0.000000 0.951959 0.000000
0.000000 0.951959 0.000000
0.000000 0.949983 0.000000
0.369907 0.946050 0.000000
0.778540 0.938231 0.000000
0.915814 0.920651 0.000000
0.973070 0.867425 0.000000
0.000000 0.000000 0.000000
0.000000 0.000000 0.000000
0.000000 0.000000 0.000000
0.000000 0.000000 0.000000
0.298599 0.000000 0.000000
0.657543 0.000000 0.000000
0.841939 0.000000 0.000000
0.931691 0.000000 0.000000
0.977541 0.000000 0.000000
0.000000 0.000000 0.000000
0.000000 0.000000 0.000000
0.000000 0.000000 0.000000
0.000000 0.000000 0.000000
0.298599 0.000000 0.000000
0.657543 0.000000 0.000000
0.841939 0.000000 0.000000
0.931691 0.000000 0.000000
0.977541 0.000000 0.000000
0.000000 0.000000 0.000000
0.000000 0.000000 0.000000
0.000000 0.000000 0.000000
0.000000 0.000000 0.000000
0.298599 0.000000 0.000000
0.657543 0.000000 0.000000
0.841939 0.000000 0.000000
0.931691 0.000000 0.000000
0.977541 0.000000 0.000000
0.000000 0.000000 0.000000
0.000000 0.000000 0.000000
0.000000 0.000000 0.000000
0.000000 0.000000 0.000000
0.298599 0.000000 0.000000
0.657543 0.000000 0.000000
0.841939 0.000000 0.000000
0.931691 0.000000 0.000000
0.977541 0.000000 0.000000
0.000000 0.190535 0.000000
0.000000 0.190535 0.000000
0.000000 0.190535 0.000000
0.000000 0.190535 0.000000
0.274280 0.067322 0.000000
0.649320 0.000000 0.000000
0.839688 0.000000 0.000000
0.931050 0.000000 0.000000
0.977348 0.000000 0.000000
0.000000 0.530681 0.000000
0.000000 0.530681 0.000000
0.000000 0.530681 0.000000
0.000000 0.530681 0.000000
0.227012 0.459393 0.000000
0.633152 0.278585 0.000000
0.835369 0.000000 0.000000
0.929837 0.000000 0.000000
0.976987 0.000000 0.000000
0.000000 0.761044 0.000000
0.000000 0.761044 0.000000
0.000000 0.761044 0.000000
0.000000 0.761044 0.000000
0.140565 0.738660 0.000000
0.601831 0.686400 0.000000
0.827375 0.539863 0.000000
0.927655 0.000230 0.000000
0.976347 0.000000 0.000000
0.000000 0.885860 0.000000
0.000000 0.885860 0.000000
0.000000 0.885860 0.000000
0.000000 0.885860 0.000000
0.013801 0.879296 0.000000
0.535558 0.865448 0.000000
0.811831 0.834428 0.000000
0.923623 0.742034 0.000000
0.975194 0.082134 0.000000
0.000000 0.951959 0.000000
0.000000 0.951959 0.000000
0.000000 0.951959 0.000000
0.000000 0.951959 0.000000
0.000000 0.949983 0.000000
0.369907 0.946050 0.000000
0.778540 0.938231 0.000000
0.915814 0.920651 0.000000
0.973070 0.867425 0.000000
0.000000 0.000000 0.000000
0.000000 0.000000 0.000000
0.000000 0.000000 0.000000
0.000000 0.000000 0.000000
0.298599 0.000000 0.000000
0.657543 0.000000 0.000000
0.841939 0.000000 0.000000
0.931691 0.000000 0.000000
0.977541 0.000000 0.000000
0.000000 0.000000 0.000000
0.000000 0.000000 0.000000
0.000000 0.000000 0.000000
0.000000 0.000000 0.000000
0.298599 0.000000 0.000000
0.657543 0.000000 0.000000
0.841939 0.000000 0.000000
0.931691 0.000000 0.000000
0.977541 0.000000 0.000000
0.000000 0.000000 0.000000
0.000000 0.000000 0.000000
0.000000 0.000000 0.000000
0.000000 0.000000 0.000000
0.298599 0.000000 0.000000
0.657543 0.000000 0.000000
0.841939 0.000000 0.000000
0.931691 0.000000 0.000000
0.977541 0.000000 0.000000
0.000000 0.000000 0.000000
0.000000 0.000000 0.000000
0.000000 0.000000 0.000000
0.000000 0.000000 0.000000
0.298599 0.000000 0.000000
0.657543 0.000000 0.000000
0.841939 0.000000 0.000000
0.931691 0.000000 0.000000
0.977541 0.000000 0.000000
0.000000 0.190535 0.000000
0.000000 0.190535 0.000000
0.000000 0.190535 0.000000
0.000000 0.190535 0.000000
0.274280 0.067322 0.000000
0.649320 0.000000 0.000000
0.839688 0.000000 0.000000
0.931050 0.000000 0.000000
0.977348 0.000000 0.000000
0.000000 0.530681 0.000000
0.000000 0.530681 0.000000
0.000000 0.530681 0.000000
0.000000 0.530681 0.000000
0.227012 0.459393 0.000000
0.633152 0.278585 0.000000
0.835369 0.000000 0.000000
0.929837 0.000000 0.000000
0.976987 0.000000 0.000000
0.000000 0.761044 0.000000
0.000000 0.761044 0.000000
0.000000 0.761044 0.000000
0.000000 0.761044 0.000000
0.140565 0.738660 0.000000
0.601831 0.686400 0.000000
0.827375 0.539863 0.000000
0.927655 0.000230 0.000000
0.976347 0.000000 0.000000
0.000000 0.885860 0.000000
0.000000 0.885860 0.000000
0.000000 0.885860 0.000000
0.000000 0.885860 0.000000
0.013801 0.879296 0.000000
0.535558 0.865448 0.000000
0.811831 0.834428 0.000000
0.923623 0.742034 0.000000
0.975194 0.082134 0.000000
0.000000 0.951959 0.000000
0.000000 0.951959 0.000000
0.000000 0.951959 0.000000
0.000000 0.951959 0.000000
0.000000 0.949983 0.000000
0.369907 0.946050 0.000000
0.778540 0.938231 0.000000
0.915814 0.920651 0.000000
0.973070 0.867425 0.000000
0.000000 0.000000 0.187482
0.000000 0.000000 0.187482
0.000000 0.000000 0.187482
0.000000 0.000000 0.187482
0.295101 0.000000 0.171779
0.656362 0.000000 0.142575
0.841614 0.000000 0.092898
0.931598 0.000000 0.021639
0.977513 0.000000 0.000000
0.000000 0.000000 0.187482
0.000000 0.000000 0.187482
0.000000 0.000000 0.187482
0.000000 0.000000 0.187482
0.295101 0.000000 0.171779
0.656362 0.000000 0.142575
0.841614 0.000000 0.092898
0.931598 0.000000 0.021639
0.977513 0.000000 0.000000
0.000000 0.000000 0.187482
0.000000 0.000000 0.187482
0.000000 0.000000 0.187482
0.000000 0.000000 0.187482
0.295101 0.000000 0.171779
0.656362 0.000000 0.142575
0.841614 0.000000 0.092898
0.931598 0.000000 0.021639
0.977513 0.000000 0.000000
0.000000 0.000000 0.187482
0.000000 0.000000 0.187482
0.000000 0.000000 0.187482
0.000000 0.000000 0.187482
0.295101 0.000000 0.171779
0.656362 0.000000 0.142575
0.841614 0.000000 0.092898
0.931598 0.000000 0.021639
0.977513 0.000000 0.000000
0.000000 0.168839 0.185695
0.000000 0.168839 0.185695
0.000000 0.168839 0.185695
0.000000 0.168839 0.185695
0.270657 0.049094 0.169985
0.648091 0.000000 0.140787
0.839355 0.000000 0.091210
0.930955 0.000000 0.020577
0.977320 0.000000 0.000000
0.000000 0.519556 0.182376
0.000000 0.519556 0.182376
0.000000 0.519556 0.182376
0.000000 0.519556 0.182376
0.223192 0.445535 0.166654
0.631827 0.258455 0.137472
0.835021 0.000000 0.088095
0.929741 0.000000 0.018661
0.976959 0.000000 0.000000
0.000000 0.757445 0.176582
0.000000 0.757445 0.176582
0.000000 0.757445 0.176582
0.000000 0.757445 0.176582
0.136651 0.734474 0.160845
0.600314 0.680700 0.131708
0.826999 0.529086 0.082720
0.927554 0.000000 0.015500
0.976317 0.000000 0.000000
0.000000 0.884776 0.166467
0.000000 0.884776 0.166467
0.000000 0.884776 0.166467
0.000000 0.884776 0.166467
0.011890 0.878113 0.150726
0.533609 0.864047 0.121719
0.811399 0.832473 0.073540
0.923514 0.737938 0.010569
0.975164 0.062785 0.000000
0.000000 0.951627 0.148829
0.000000 0.951627 0.148829
0.000000 0.951627 0.148829
0.000000 0.951627 0.148829
0.000000 0.949636 0.133158
0.366837 0.945669 0.104553
0.777973 0.937778 0.058225
0.915689 0.920016 0.003926
0.973037 0.866056 0.000000
0.000000 0.000000 0.526245
0.000000 0.000000 0.526245
0.000000 0.000000 0.526245
0.000000 0.000000 0.526245
0.288558 0.000000 0.518115
0.654152 0.000000 0.502428
0.841006 0.000000 0.473118
0.931424 0.000000 0.415411
0.977461 0.000000 0.291937
0.000000 0.000000 0.526245
0.000000 0.000000 0.526245
0.000000 0.000000 0.526245
0.000000 0.000000 0.526245
0.288558 0.000000 0.518115
0.654152 0.000000 0.502428
0.841006 0.000000 0.473118
0.931424 0.000000 0.415411
0.977461 0.000000 0.291937
0.000000 0.000000 0.526245
0.000000 0.000000 0.526245
0.000000 0.000000 0.526245
0.000000 0.000000 0.526245
0.288558 0.000000 0.518115
0.654152 0.000000 0.502428
0.841006 0.000000 0.473118
0.931424 0.000000 0.415411
0.977461 0.000000 0.291937
0.000000 0.000000 0.526245
0.000000 0.000000 0.526245
0.000000 0.000000 0.526245
0.000000 0.000000 0.526245
0.288558 0.000000 0.518115
0.654152 0.000000 0.502428
0.841006 0.000000 0.473118
0.931424 0.000000 0.415411
0.977461 0.000000 0.291937
0.000000 0.128574 0.525329
0.000000 0.128574 0.525329
0.000000 0.128574 0.525329
0.000000 0.128574 0.525329
0.263884 0.020780 0.517174
0.645791 0.000000 0.501439
0.838734 0.000000 0.472038
0.930780 0.000000 0.414151
0.977268 0.000000 0.290328
0.000000 0.497771 0.523621
0.000000 0.497771 0.523621
0.000000 0.497771 0.523621
0.000000 0.497771 0.523621
0.216066 0.418382 0.515420
0.629347 0.219800 0.499594
0.834372 0.000000 0.470022
0.929561 0.000000 0.411801
0.976905 0.000000 0.287330
0.000000 0.750517 0.520622
0.000000 0.750517 0.520622
0.000000 0.750517 0.520622
0.000000 0.750517 0.520622
0.129407 0.726396 0.512338
0.597471 0.669645 0.496353
0.826298 0.507984 0.466482
0.927366 0.000000 0.407673
0.976263 0.000000 0.282074
0.000000 0.882720 0.515321
0.000000 0.882720 0.515321
0.000000 0.882720 0.515321
0.000000 0.882720 0.515321
0.008655 0.875871 0.506893
0.529956 0.861384 0.490625
0.810591 0.828741 0.460225
0.923312 0.730039 0.400380
0.975107 0.031324 0.272819
0.000000 0.951004 0.505861
0.000000 0.951004 0.505861
0.000000 0.951004 0.505861
0.000000 0.951004 0.505861
0.000000 0.948982 0.497172
0.361085 0.944952 0.480399
0.776913 0.936926 0.449053
0.915458 0.918817 0.387367
0.972977 0.863455 0.256412
0.000000 0.000000 0.757954
0.000000 0.000000 0.757954
0.000000 0.000000 0.757954
0.000000 0.000000 0.757954
0.277001 0.000000 0.755302
0.650242 0.000000 0.750248
0.839939 0.000000 0.741007
0.931121 0.000000 0.723459
0.977370 0.000000 0.687642
0.000000 0.000000 0.757954
0.000000 0.000000 0.757954
0.000000 0.000000 0.757954
0.000000 0.000000 0.757954
0.277001 0.000000 0.755302
0.650242 0.000000 0.750248
0.839939 0.000000 0.741007
0.931121 0.000000 0.723459
0.977370 0.000000 0.687642
0.000000 0.000000 0.757954
0.000000 0.000000 0.757954
0.000000 0.000000 0.757954
0.000000 0.000000 0.757954
0.277001 0.000000 0.755302
0.650242 0.000000 0.750248
0.839939 0.000000 0.741007
0.931121 0.000000 0.723459
0.977370 0.000000 0.687642
0.000000 0.000000 0.757954
0.000000 0.000000 0.757954
0.000000 0.000000 0.757954
0.000000 0.000000 0.757954
0.277001 0.000000 0.755302
0.650242 0.000000 0.750248
0.839939 0.000000 0.741007
0.931121 0.000000 0.723459
0.977370 0.000000 0.687642
0.000000 0.062591 0.757654
0.000000 0.062591 0.757654
0.000000 0.062591 0.757654
0.000000 0.062591 0.757654
0.251941 0.000000 0.754997
0.641722 0.000000 0.749931
0.837641 0.000000 0.740671
0.930472 0.000000 0.723084
0.977176 0.000000 0.687182
0.000000 0.455961 0.757096
0.000000 0.455961 0.757096
0.000000 0.455961 0.757096
0.000000 0.455961 0.757096
0.203556 0.366350 0.754428
0.624956 0.149914 0.749343
0.833231 0.000000 0.740045
0.929246 0.000000 0.722385
0.976812 0.000000 0.686323
0.000000 0.737619 0.756117
0.000000 0.737619 0.756117
0.000000 0.737619 0.756117
0.000000 0.737619 0.756117
0.116878 0.711288 0.753431
0.592436 0.648773 0.748311
0.825065 0.467502 0.738948
0.927038 0.000000 0.721160
0.976168 0.000000 0.684818
0.000000 0.879000 0.754396
0.000000 0.879000 0.754396
0.000000 0.879000 0.754396
0.000000 0.879000 0.754396
0.004068 0.871806 0.751678
0.523478 0.856540 0.746496
0.809169 0.821904 0.737018
0.922959 0.715274 0.719002
0.975008 0.000246 0.682165
0.000000 0.949896 0.751347
0.000000 0.949896 0.751347
0.000000 0.949896 0.751347
0.000000 0.949896 0.751347
0.000000 0.947818 0.748572
0.350897 0.943674 0.743279
0.775046 0.935403 0.733595
0.915052 0.916667 0.715174
0.972870 0.858727 0.677450
0.000000 0.000000 0.884056
0.000000 0.000000 0.884056
0.000000 0.000000 0.884056
0.000000 0.000000 0.884056
0.256415 0.000000 0.883254
0.643248 0.000000 0.881741
0.838050 0.000000 0.879033
0.930587 0.000000 0.874077
0.977210 0.000000 0.864646
0.000000 0.000000 0.884056
0.000000 0.000000 0.884056
0.000000 0.000000 0.884056
0.000000 0.000000 0.884056
0.256415 0.000000 0.883254
0.643248 0.000000 0.881741
0.838050 0.000000 0.879033
0.930587 0.000000 0.874077
0.977210 0.000000 0.864646
0.000000 0.000000 0.884056
0.000000 0.000000 0.884056
0.000000 0.000000 0.884056
0.000000 0.000000 0.884056
0.256415 0.000000 0.883254
0.643248 0.000000 0.881741
0.838050 0.000000 0.879033
0.930587 0.000000 0.874077
0.977210 0.000000 0.864646
0.000000 0.000000 0.884056
0.000000 0.000000 0.884056
0.000000 0.000000 0.884056
0.000000 0.000000 0.884056
0.256415 0.000000 0.883254
0.643248 0.000000 0.881741
0.838050 0.000000 0.879033
0.930587 0.000000 0.874077
0.977210 0.000000 0.864646
0.000000 0.000000 0.883965
0.000000 0.000000 0.883965
0.000000 0.000000 0.883965
0.000000 0.000000 0.883965
0.230736 0.000000 0.883162
0.634440 0.000000 0.881648
0.835708 0.000000 0.878936
0.929932 0.000000 0.873973
0.977015 0.000000 0.864531
0.000000 0.369771 0.883796
0.000000 0.369771 0.883796
0.000000 0.369771 0.883796
0.000000 0.369771 0.883796
0.181530 0.260735 0.882990
0.617095 0.037944 0.881473
0.831212 0.000000 0.878755
0.928693 0.000000 0.873781
0.976650 0.000000 0.864315
0.000000 0.712269 0.883500
0.000000 0.712269 0.883500
0.000000 0.712269 0.883500
0.000000 0.712269 0.883500
0.095493 0.681347 0.882691
0.583411 0.606688 0.881168
0.822881 0.384007 0.878439
0.926461 0.000000 0.873444
0.976001 0.000000 0.863938
0.000000 0.872065 0.882981
0.000000 0.872065 0.882981
0.000000 0.872065 0.882981
0.000000 0.872065 0.882981
0.000000 0.864205 0.882167
0.511845 0.847427 0.880633
0.806648 0.808863 0.877885
0.922337 0.686050 0.872855
0.974835 0.000000 0.863278
0.000000 0.947892 0.882068
0.000000 0.947892 0.882068
0.000000 0.947892 0.882068
0.000000 0.947892 0.882068
0.000000 0.945712 0.881245
0.332643 0.941356 0.879692
0.771728 0.932633 0.876910
0.914338 0.912721 0.871817
0.972684 0.849838 0.862114
0.000000 0.000000 0.950941
0.000000 0.000000 0.950941
0.000000 0.000000 0.950941
0.000000 0.000000 0.950941
0.219340 0.000000 0.950696
0.630488 0.000000 0.950236
0.834671 0.000000 0.949422
0.929643 0.000000 0.947964
0.976930 0.000000 0.945299
0.000000 0.000000 0.950941
0.000000 0.000000 0.950941
0.000000 0.000000 0.950941
0.000000 0.000000 0.950941
0.219340 0.000000 0.950696
0.630488 0.000000 0.950236
0.834671 0.000000 0.949422
0.929643 0.000000 0.947964
0.976930 0.000000 0.945299
0.000000 0.000000 0.950941
0.000000 0.000000 0.950941
0.000000 0.000000 0.950941
0.000000 0.000000 0.950941
0.219340 0.000000 0.950696
0.630488 0.000000 0.950236
0.834671 0.000000 0.949422
0.929643 0.000000 0.947964
0.976930 0.000000 0.945299
0.000000 0.000000 0.950941
0.000000 0.000000 0.950941
0.000000 0.000000 0.950941
0.000000 0.000000 0.950941
0.219340 0.000000 0.950696
0.630488 0.000000 0.950236
0.834671 0.000000 0.949422
0.929643 0.000000 0.947964
0.976930 0.000000 0.945299
0.000000 0.000000 0.950913
0.000000 0.000000 0.950913
0.000000 0.000000 0.950913
0.000000 0.000000 0.950913
0.192810 0.000000 0.950668
0.621144 0.000000 0.950207
0.832249 0.000000 0.949393
0.928976 0.000000 0.947934
0.976733 0.000000 0.945267
0.000000 0.176358 0.950861
0.000000 0.176358 0.950861
0.000000 0.176358 0.950861
0.000000 0.176358 0.950861
0.142882 0.055208 0.950615
0.602724 0.000000 0.950154
0.827596 0.000000 0.949339
0.927714 0.000000 0.947878
0.976364 0.000000 0.945208
0.000000 0.656869 0.950771
0.000000 0.656869 0.950771
0.000000 0.656869 0.950771
0.000000 0.656869 0.950771
0.060559 0.614859 0.950524
0.566877 0.510272 0.950062
0.818967 0.194857 0.949245
0.925440 0.000000 0.947781
0.975709 0.000000 0.945104
0.000000 0.858391 0.950612
0.000000 0.858391 0.950612
0.000000 0.858391 0.950612
0.000000 0.858391 0.950612
0.000000 0.849133 0.950365
0.490477 0.829140 0.949901
0.802121 0.781993 0.949080
0.921236 0.621303 0.947611
0.974530 0.000000 0.944923
0.000000 0.944158 0.950335
0.000000 0.944158 0.950335
0.000000 0.944158 0.950335
0.000000 0.944158 0.950335
0.000000 0.941781 0.950085
0.299329 0.937016 0.949619
0.765746 0.927411 0.948792
0.913073 0.905172 0.947313
0.972356 0.832033 0.944606
